%
(test2)
(T1  D=6 CR=1 - ZMIN=-40.49 - bullnose end mill)
G90 G94
G17
G21
G28 G91 Z0
G90

(Adaptive2)
M9
T1 M6
S15000 M3
G54
M9
G0 X47.891 Y47.685
Z15
Z5
Z3.1
G1 Z2.5 F349
G3 X44.109 Y47.309 Z2.292 I-1.891 J-0.188
X47.891 Y47.685 Z2.083 I1.891 J0.188
X44.109 Y47.309 Z1.875 I-1.891 J-0.188
X47.891 Y47.685 Z1.666 I1.891 J0.188
X44.109 Y47.309 Z1.458 I-1.891 J-0.188
X47.891 Y47.685 Z1.249 I1.891 J0.188
X44.109 Y47.309 Z1.041 I-1.891 J-0.188
X47.891 Y47.685 Z0.832 I1.891 J0.188
X44.109 Y47.309 Z0.624 I-1.891 J-0.188
X47.891 Y47.685 Z0.416 I1.891 J0.188
X44.109 Y47.309 Z0.207 I-1.891 J-0.188
X47.891 Y47.685 Z-0.001 I1.891 J0.188
X44.109 Y47.309 Z-0.21 I-1.891 J-0.188
X47.891 Y47.685 Z-0.418 I1.891 J0.188
X44.109 Y47.309 Z-0.627 I-1.891 J-0.188
X47.891 Y47.685 Z-0.835 I1.891 J0.188
X44.109 Y47.309 Z-1.044 I-1.891 J-0.188
X47.891 Y47.685 Z-1.252 I1.891 J0.188
X44.109 Y47.309 Z-1.46 I-1.891 J-0.188
X47.891 Y47.685 Z-1.669 I1.891 J0.188
X44.109 Y47.309 Z-1.877 I-1.891 J-0.188
X47.891 Y47.685 Z-2.086 I1.891 J0.188
X44.109 Y47.309 Z-2.294 I-1.891 J-0.188
X47.891 Y47.685 Z-2.503 I1.891 J0.188
X44.109 Y47.309 Z-2.711 I-1.891 J-0.188
X47.891 Y47.685 Z-2.92 I1.891 J0.188
X44.109 Y47.309 Z-3.128 I-1.891 J-0.188
X47.891 Y47.685 Z-3.336 I1.891 J0.188
X44.109 Y47.309 Z-3.545 I-1.891 J-0.188
X47.891 Y47.685 Z-3.753 I1.891 J0.188
X44.109 Y47.309 Z-3.962 I-1.891 J-0.188
X47.891 Y47.685 Z-4.17 I1.891 J0.188
X44.109 Y47.309 Z-4.379 I-1.891 J-0.188
X47.891 Y47.685 Z-4.587 I1.891 J0.188
X44.109 Y47.309 Z-4.796 I-1.891 J-0.188
X47.891 Y47.685 Z-5.004 I1.891 J0.188
X44.109 Y47.309 Z-5.212 I-1.891 J-0.188
X47.891 Y47.685 Z-5.421 I1.891 J0.188
X44.109 Y47.309 Z-5.629 I-1.891 J-0.188
X47.891 Y47.685 Z-5.838 I1.891 J0.188
X44.109 Y47.309 Z-6.046 I-1.891 J-0.188
X47.891 Y47.685 Z-6.255 I1.891 J0.188
X44.109 Y47.309 Z-6.463 I-1.891 J-0.188
X47.891 Y47.685 Z-6.671 I1.891 J0.188
X44.109 Y47.309 Z-6.88 I-1.891 J-0.188
X47.891 Y47.685 Z-7.088 I1.891 J0.188
X44.109 Y47.309 Z-7.297 I-1.891 J-0.188
X47.891 Y47.685 Z-7.505 I1.891 J0.188
X44.109 Y47.309 Z-7.714 I-1.891 J-0.188
X47.891 Y47.685 Z-7.922 I1.891 J0.188
X44.109 Y47.309 Z-8.131 I-1.891 J-0.188
X47.891 Y47.685 Z-8.339 I1.891 J0.188
X44.109 Y47.309 Z-8.547 I-1.891 J-0.188
X47.891 Y47.685 Z-8.756 I1.891 J0.188
X44.109 Y47.309 Z-8.964 I-1.891 J-0.188
X47.891 Y47.685 Z-9.173 I1.891 J0.188
X44.109 Y47.309 Z-9.381 I-1.891 J-0.188
X47.891 Y47.685 Z-9.59 I1.891 J0.188
X44.109 Y47.309 Z-9.798 I-1.891 J-0.188
X47.9 Y47.497 Z-10 I1.891 J0.188
X44.1 I-1.9
X47.9 I1.9
G1 X47.92 Y48.455
X47.953 Y48.57
X47.975 Y48.718
X47.976 Y48.868
X47.959 Y49.017
X47.926 Y49.163
X47.878 Y49.306
X47.818 Y49.443
X47.746 Y49.574
X47.661 Y49.703
X47.561 Y49.83
X47.448 Y49.953
X47.32 Y50.071
X47.177 Y50.183
X47.021 Y50.286
X46.853 Y50.379
X46.672 Y50.461
X46.48 Y50.53
X46.277 Y50.584
X46.067 Y50.623
X45.849 Y50.646
X45.626 Y50.651
X45.399 Y50.637
X45.17 Y50.605
X44.941 Y50.555
X44.713 Y50.484
X44.489 Y50.395
X44.27 Y50.287
X44.058 Y50.159
X43.855 Y50.014
X43.662 Y49.852
X43.482 Y49.673
X43.315 Y49.479
X43.163 Y49.271
X43.028 Y49.05
X42.91 Y48.817
X42.811 Y48.574
X42.732 Y48.323
X42.672 Y48.066
X42.633 Y47.803
X42.615 Y47.538
X42.619 Y47.27
X42.644 Y47.004
X42.691 Y46.739
X42.759 Y46.479
X42.847 Y46.224
X42.956 Y45.977
X43.085 Y45.738
X43.233 Y45.511
X43.398 Y45.296
X43.581 Y45.094
X43.78 Y44.908
X43.993 Y44.738
X44.219 Y44.586
X44.457 Y44.452
X44.704 Y44.338
X44.961 Y44.243
X45.224 Y44.17
X45.493 Y44.118
X45.765 Y44.088
X46.039 Y44.079
X46.312 Y44.093
X46.584 Y44.128
X46.852 Y44.186
X47.115 Y44.264
X47.371 Y44.364
X47.617 Y44.483
X47.854 Y44.623
X48.079 Y44.78
X48.29 Y44.956
X48.486 Y45.147
X48.667 Y45.354
X48.843 Y45.593
X49.061 Y45.942
X49.288 Y46.382
X49.453 Y46.776
X49.574 Y47.145
X49.658 Y47.497
X49.712 Y47.839
X49.737 Y48.171
X49.735 Y48.496
X49.708 Y48.814
X49.655 Y49.125
X49.579 Y49.429
X49.478 Y49.726
X49.354 Y50.014
X49.207 Y50.292
X49.037 Y50.558
X48.844 Y50.812
X48.631 Y51.052
X48.397 Y51.275
X48.143 Y51.481
X47.871 Y51.667
X47.582 Y51.833
X47.278 Y51.977
X46.959 Y52.097
X46.628 Y52.192
X46.286 Y52.261
X45.936 Y52.303
X45.58 Y52.317
X45.22 Y52.302
X44.858 Y52.257
X44.498 Y52.184
X44.141 Y52.08
X43.791 Y51.947
X43.449 Y51.785
X43.119 Y51.595
X42.804 Y51.377
X42.505 Y51.133
X42.224 Y50.864
X41.965 Y50.572
X41.728 Y50.258
X41.517 Y49.924
X41.332 Y49.573
X41.175 Y49.206
X41.047 Y48.827
X40.95 Y48.437
X40.885 Y48.038
X40.851 Y47.635
X40.85 Y47.229
X40.881 Y46.823
X40.946 Y46.419
X41.042 Y46.022
X41.171 Y45.632
X41.33 Y45.253
X41.52 Y44.888
X41.739 Y44.538
X41.986 Y44.207
X42.259 Y43.896
X42.556 Y43.607
X42.876 Y43.344
X43.216 Y43.106
X43.575 Y42.896
X43.95 Y42.716
X44.338 Y42.566
X44.737 Y42.448
X45.145 Y42.362
X45.558 Y42.309
X45.975 Y42.289
X46.392 Y42.303
X46.807 Y42.35
X47.216 Y42.431
X47.619 Y42.544
X48.01 Y42.689
X48.39 Y42.865
X48.757 Y43.073
X49.124 Y43.322
X49.497 Y43.621
X49.853 Y43.957
X50.187 Y44.327
X50.493 Y44.727
X50.767 Y45.152
X51.005 Y45.594
X51.205 Y46.051
X51.366 Y46.518
X51.458 Y46.875
X51.551 Y47.351
X51.605 Y47.83
X51.62 Y48.307
X51.597 Y48.782
X51.537 Y49.252
X51.439 Y49.713
X51.304 Y50.165
X51.134 Y50.605
X50.928 Y51.03
X50.689 Y51.438
X50.417 Y51.827
X50.113 Y52.194
X49.78 Y52.536
X49.418 Y52.853
X49.031 Y53.141
X48.619 Y53.398
X48.184 Y53.623
X47.73 Y53.813
X47.259 Y53.968
X46.773 Y54.086
X46.275 Y54.164
X45.77 Y54.203
X45.258 Y54.201
X44.745 Y54.157
X44.234 Y54.072
X43.728 Y53.945
X43.23 Y53.777
X42.744 Y53.569
X42.274 Y53.32
X41.823 Y53.033
X41.395 Y52.709
X40.991 Y52.35
X40.616 Y51.958
X40.272 Y51.535
X39.962 Y51.084
X39.688 Y50.608
X39.452 Y50.109
X39.256 Y49.591
X39.102 Y49.057
X38.99 Y48.511
X38.923 Y47.956
X38.901 Y47.396
X38.923 Y46.835
X38.991 Y46.276
X39.104 Y45.723
X39.261 Y45.18
X39.461 Y44.65
X39.704 Y44.138
X39.987 Y43.645
X40.309 Y43.177
X40.669 Y42.735
X41.063 Y42.323
X41.49 Y41.943
X41.946 Y41.599
X42.428 Y41.292
X42.934 Y41.024
X43.461 Y40.798
X44.004 Y40.615
X44.56 Y40.476
X45.126 Y40.382
X45.699 Y40.333
X46.273 Y40.331
X46.846 Y40.375
X47.414 Y40.465
X47.978 Y40.601
X48.537 Y40.784
X49.087 Y41.016
X49.626 Y41.295
X50.149 Y41.621
X50.652 Y41.994
X51.13 Y42.413
X51.577 Y42.873
X51.989 Y43.371
X52.361 Y43.902
X52.69 Y44.463
X52.973 Y45.048
X53.207 Y45.652
X53.391 Y46.271
X53.525 Y46.901
X53.607 Y47.537
X53.638 Y48.177
X53.617 Y48.815
X53.546 Y49.448
X53.424 Y50.073
X53.252 Y50.686
X53.032 Y51.283
X52.764 Y51.861
X52.451 Y52.417
X52.093 Y52.946
X51.809 Y53.301
X51.382 Y53.777
X50.916 Y54.22
X50.413 Y54.625
X49.878 Y54.99
X49.312 Y55.312
X48.72 Y55.59
X48.103 Y55.82
X47.467 Y56.001
X46.815 Y56.131
X46.151 Y56.209
X45.479 Y56.233
X44.803 Y56.203
X44.129 Y56.119
X43.46 Y55.98
X42.801 Y55.786
X42.157 Y55.54
X41.531 Y55.241
X40.929 Y54.891
X40.355 Y54.492
X39.812 Y54.047
X39.305 Y53.558
X38.836 Y53.027
X38.411 Y52.459
X38.031 Y51.856
X37.699 Y51.223
X37.419 Y50.563
X37.192 Y49.881
X37.02 Y49.181
X36.904 Y48.468
X36.846 Y47.746
Y47.02
X36.904 Y46.295
X37.021 Y45.576
X37.195 Y44.867
X37.426 Y44.174
X37.712 Y43.5
X38.052 Y42.85
X38.443 Y42.229
X38.884 Y41.641
X39.37 Y41.09
X39.9 Y40.578
X40.47 Y40.111
X41.076 Y39.69
X41.714 Y39.319
X42.381 Y39.001
X43.071 Y38.736
X43.78 Y38.528
X44.505 Y38.378
X45.239 Y38.286
X45.981 Y38.253
X46.725 Y38.28
X47.469 Y38.366
X48.209 Y38.514
X48.94 Y38.722
X49.659 Y38.99
X50.361 Y39.319
X51.04 Y39.706
X51.692 Y40.151
X52.311 Y40.65
X52.893 Y41.201
X53.431 Y41.801
X53.921 Y42.445
X54.359 Y43.127
X54.742 Y43.844
X55.066 Y44.589
X55.329 Y45.358
X55.529 Y46.144
X55.665 Y46.943
X55.737 Y47.749
X55.741 Y48.228
X55.71 Y49.033
X55.614 Y49.833
X55.455 Y50.622
X55.232 Y51.397
X54.948 Y52.152
X54.608 Y52.875
X54.204 Y53.578
X53.746 Y54.247
X53.234 Y54.878
X52.673 Y55.467
X52.064 Y56.01
X51.413 Y56.504
X50.721 Y56.945
X49.993 Y57.331
X49.234 Y57.659
X48.448 Y57.926
X47.64 Y58.129
X46.815 Y58.268
X45.977 Y58.34
X45.133 Y58.345
X44.288 Y58.282
X43.447 Y58.15
X42.616 Y57.951
X41.8 Y57.685
X41.005 Y57.352
X40.237 Y56.956
X39.5 Y56.497
X38.8 Y55.979
X38.141 Y55.405
X37.529 Y54.777
X36.968 Y54.101
X36.461 Y53.379
X36.012 Y52.617
X35.625 Y51.82
X35.303 Y50.992
X35.047 Y50.139
X34.861 Y49.266
X34.745 Y48.379
X34.7 Y47.484
X34.727 Y46.587
X34.826 Y45.693
X34.997 Y44.809
X35.239 Y43.94
X35.55 Y43.092
X35.929 Y42.271
X36.372 Y41.482
X36.879 Y40.731
X37.444 Y40.022
X38.065 Y39.36
X38.738 Y38.749
X39.458 Y38.194
X40.221 Y37.698
X41.021 Y37.265
X41.855 Y36.897
X42.716 Y36.597
X43.598 Y36.367
X44.498 Y36.208
X45.41 Y36.122
X45.888 Y36.115
X46.788 Y36.136
X47.692 Y36.229
X48.596 Y36.396
X49.492 Y36.638
X50.374 Y36.953
X51.235 Y37.342
X52.069 Y37.802
X52.868 Y38.331
X53.622 Y38.922
X54.326 Y39.571
X54.977 Y40.273
X55.57 Y41.025
X56.103 Y41.821
X56.572 Y42.656
X56.975 Y43.525
X57.308 Y44.423
X57.57 Y45.344
X57.76 Y46.283
X57.875 Y47.233
X57.915 Y48.19
X57.881 Y49.147
X57.771 Y50.099
X57.588 Y51.039
X57.332 Y51.961
X57.004 Y52.861
X56.606 Y53.732
X56.142 Y54.57
X55.613 Y55.369
X55.024 Y56.124
X54.378 Y56.831
X53.679 Y57.485
X52.931 Y58.084
X52.14 Y58.623
X51.309 Y59.099
X50.444 Y59.51
X49.55 Y59.854
X48.632 Y60.128
X47.697 Y60.332
X46.748 Y60.465
X45.792 Y60.526
X44.835 Y60.514
X43.881 Y60.429
X42.936 Y60.273
X42.006 Y60.046
X41.095 Y59.749
X40.209 Y59.386
X39.352 Y58.958
X38.529 Y58.468
X37.744 Y57.92
X37.001 Y57.315
X36.304 Y56.658
X35.656 Y55.953
X35.062 Y55.202
X34.524 Y54.41
X34.047 Y53.579
X33.631 Y52.717
X33.28 Y51.826
X32.993 Y50.912
X32.772 Y49.98
X32.618 Y49.035
X32.532 Y48.081
X32.513 Y47.124
X32.564 Y46.167
X32.684 Y45.217
X32.873 Y44.278
X33.129 Y43.355
X33.449 Y42.453
X33.833 Y41.575
X34.278 Y40.727
X34.781 Y39.912
X35.34 Y39.135
X35.953 Y38.399
X36.618 Y37.71
X37.331 Y37.07
X38.087 Y36.483
X38.883 Y35.95
X39.715 Y35.475
X40.577 Y35.059
X41.466 Y34.704
X42.379 Y34.412
X43.31 Y34.187
X44.255 Y34.032
X45.208 Y33.941
X46.165 Y33.915
X47.122 Y33.956
X48.074 Y34.066
X49.015 Y34.242
X49.942 Y34.483
X50.85 Y34.786
X51.736 Y35.15
X52.595 Y35.573
X53.423 Y36.055
X54.215 Y36.593
X54.969 Y37.184
X55.682 Y37.823
X56.351 Y38.509
X56.974 Y39.236
X57.547 Y40.004
X58.066 Y40.808
X58.529 Y41.647
X58.936 Y42.513
X59.286 Y43.405
X59.577 Y44.318
X59.807 Y45.247
X59.975 Y46.19
X60.077 Y47.142
X60.116 Y48.099
X60.092 Y49.056
X60.005 Y50.01
X59.857 Y50.956
X59.647 Y51.891
X59.373 Y52.808
X59.037 Y53.705
X58.643 Y54.578
X58.193 Y55.423
X57.689 Y56.238
X57.133 Y57.018
X56.526 Y57.758
X55.87 Y58.456
X55.169 Y59.109
X54.427 Y59.714
X53.648 Y60.271
X52.834 Y60.776
X51.989 Y61.227
X51.116 Y61.621
X50.219 Y61.956
X49.302 Y62.232
X48.369 Y62.449
X47.425 Y62.606
X46.472 Y62.703
X45.515 Y62.739
X44.558 Y62.71
X43.604 Y62.619
X42.659 Y62.467
X41.725 Y62.256
X40.806 Y61.986
X39.905 Y61.659
X39.028 Y61.276
X38.177 Y60.836
X37.356 Y60.343
X36.567 Y59.8
X35.814 Y59.209
X35.098 Y58.573
X34.422 Y57.895
X33.79 Y57.175
X33.207 Y56.415
X32.673 Y55.62
X32.189 Y54.794
X31.757 Y53.939
X31.378 Y53.059
X31.053 Y52.158
X30.786 Y51.239
X30.576 Y50.304
X30.425 Y49.359
X30.332 Y48.405
X30.297 Y47.448
X30.321 Y46.491
X30.402 Y45.537
X30.543 Y44.59
X30.744 Y43.653
X31.002 Y42.731
X31.316 Y41.826
X31.684 Y40.942
X32.104 Y40.081
X32.574 Y39.247
X33.095 Y38.443
X33.666 Y37.674
X34.283 Y36.942
X34.944 Y36.249
X35.646 Y35.597
X36.385 Y34.988
X37.159 Y34.425
X37.967 Y33.91
X38.804 Y33.445
X39.669 Y33.033
X40.557 Y32.675
X41.465 Y32.371
X42.39 Y32.122
X43.328 Y31.929
X44.276 Y31.792
X45.23 Y31.714
X46.188 Y31.695
X47.145 Y31.734
X48.098 Y31.83
X49.043 Y31.983
X49.978 Y32.19
X50.899 Y32.451
X51.803 Y32.768
X52.686 Y33.139
X53.545 Y33.562
X54.378 Y34.035
X55.182 Y34.556
X55.954 Y35.122
X56.693 Y35.731
X57.396 Y36.382
X58.058 Y37.074
X58.679 Y37.803
X59.256 Y38.567
X59.788 Y39.363
X60.274 Y40.189
X60.713 Y41.04
X61.103 Y41.915
X61.441 Y42.811
X61.726 Y43.725
X61.957 Y44.654
X62.135 Y45.596
X62.258 Y46.545
X62.328 Y47.5
X62.343 Y48.458
X62.304 Y49.415
X62.208 Y50.368
X62.057 Y51.313
X61.852 Y52.249
X61.593 Y53.171
X61.283 Y54.077
X60.921 Y54.964
X60.51 Y55.829
X60.05 Y56.668
X59.541 Y57.48
X58.986 Y58.26
X58.387 Y59.008
X57.747 Y59.72
X57.067 Y60.395
X56.351 Y61.031
X55.6 Y61.625
X54.815 Y62.174
X54.001 Y62.677
X53.159 Y63.134
X52.292 Y63.541
X51.404 Y63.9
X50.497 Y64.209
X49.575 Y64.467
X48.64 Y64.672
X47.694 Y64.823
X46.741 Y64.921
X45.785 Y64.965
X44.827 Y64.955
X43.871 Y64.892
X42.921 Y64.777
X41.978 Y64.609
X41.046 Y64.388
X40.128 Y64.115
X39.227 Y63.792
X38.344 Y63.419
X37.484 Y62.998
X36.648 Y62.531
X35.838 Y62.02
X35.057 Y61.465
X34.309 Y60.868
X33.594 Y60.231
X32.916 Y59.555
X32.275 Y58.843
X31.674 Y58.097
X31.114 Y57.32
X30.597 Y56.514
X30.125 Y55.681
X29.699 Y54.823
X29.321 Y53.943
X28.991 Y53.044
X28.71 Y52.128
X28.478 Y51.199
X28.297 Y50.259
X28.165 Y49.31
X28.085 Y48.356
X28.057 Y47.399
X28.081 Y46.441
X28.157 Y45.487
X28.284 Y44.537
X28.462 Y43.596
X28.69 Y42.666
X28.966 Y41.749
X29.291 Y40.848
X29.665 Y39.967
X30.085 Y39.106
X30.551 Y38.269
X31.06 Y37.458
X31.613 Y36.676
X32.205 Y35.924
X32.837 Y35.204
X33.507 Y34.52
X34.213 Y33.872
X34.953 Y33.264
X35.723 Y32.695
X36.523 Y32.169
X37.35 Y31.685
X38.201 Y31.245
X39.073 Y30.851
X39.966 Y30.505
X40.877 Y30.207
X41.801 Y29.958
X42.738 Y29.759
X43.684 Y29.609
X44.637 Y29.51
X45.593 Y29.46
X46.551 Y29.461
X47.507 Y29.513
X48.459 Y29.615
X49.405 Y29.768
X50.341 Y29.969
X51.265 Y30.22
X52.176 Y30.517
X53.069 Y30.862
X53.944 Y31.251
X54.797 Y31.687
X55.626 Y32.166
X56.429 Y32.688
X57.205 Y33.25
X57.95 Y33.851
X58.664 Y34.489
X59.345 Y35.163
X59.99 Y35.87
X60.599 Y36.61
X61.169 Y37.38
X61.698 Y38.178
X62.186 Y39.002
X62.632 Y39.849
X63.035 Y40.718
X63.393 Y41.606
X63.707 Y42.511
X63.974 Y43.431
X64.194 Y44.363
X64.365 Y45.305
X64.488 Y46.255
X64.564 Y47.21
X64.591 Y48.167
X64.57 Y49.124
X64.501 Y50.08
X64.384 Y51.03
X64.219 Y51.974
X64.005 Y52.907
X63.743 Y53.828
X63.436 Y54.735
X63.083 Y55.626
X62.686 Y56.497
X62.246 Y57.348
X61.764 Y58.175
X61.241 Y58.977
X60.677 Y59.751
X60.074 Y60.496
X59.434 Y61.208
X58.76 Y61.888
X58.052 Y62.533
X57.313 Y63.143
X56.545 Y63.714
X55.749 Y64.247
X54.927 Y64.739
X54.081 Y65.188
X53.214 Y65.594
X52.327 Y65.957
X51.424 Y66.275
X50.506 Y66.548
X49.576 Y66.775
X48.635 Y66.957
X47.687 Y67.092
X46.734 Y67.178
X45.777 Y67.217
X44.819 Y67.207
X43.863 Y67.151
X42.911 Y67.048
X41.965 Y66.898
X41.027 Y66.703
X40.101 Y66.462
X39.187 Y66.176
X38.288 Y65.844
X37.407 Y65.468
X36.546 Y65.05
X35.705 Y64.59
X34.888 Y64.091
X34.096 Y63.553
X33.331 Y62.977
X32.594 Y62.366
X31.887 Y61.719
X31.214 Y61.037
X30.575 Y60.324
X29.971 Y59.581
X29.404 Y58.809
X28.874 Y58.012
X28.383 Y57.189
X27.932 Y56.345
X27.521 Y55.479
X27.154 Y54.595
X26.829 Y53.694
X26.549 Y52.778
X26.313 Y51.85
X26.121 Y50.912
X25.974 Y49.966
X25.871 Y49.013
X25.814 Y48.057
X25.803 Y47.1
X25.838 Y46.143
X25.92 Y45.188
X26.047 Y44.239
X26.22 Y43.297
X26.436 Y42.364
X26.697 Y41.443
X27 Y40.534
X27.346 Y39.641
X27.734 Y38.766
X28.163 Y37.91
X28.634 Y37.075
X29.144 Y36.265
X29.691 Y35.479
X30.275 Y34.72
X30.895 Y33.989
X31.548 Y33.289
X32.233 Y32.62
X32.948 Y31.983
X33.694 Y31.382
X34.468 Y30.818
X35.268 Y30.291
X36.091 Y29.802
X36.937 Y29.353
X37.803 Y28.943
X38.687 Y28.575
X39.587 Y28.249
X40.502 Y27.965
X41.429 Y27.726
X42.367 Y27.531
X43.313 Y27.381
X44.264 Y27.275
X45.22 Y27.214
X46.178 Y27.198
X47.135 Y27.226
X48.09 Y27.299
X49.04 Y27.416
X49.984 Y27.578
X50.92 Y27.784
X51.844 Y28.034
X52.756 Y28.326
X53.654 Y28.661
X54.535 Y29.036
X55.398 Y29.451
X56.241 Y29.905
X57.062 Y30.397
X57.86 Y30.927
X58.632 Y31.494
X59.377 Y32.095
X60.094 Y32.73
X60.782 Y33.397
X61.438 Y34.095
X62.062 Y34.821
X62.653 Y35.575
X63.209 Y36.354
X63.73 Y37.158
X64.212 Y37.986
X64.656 Y38.834
X65.061 Y39.702
X65.426 Y40.587
X65.752 Y41.488
X66.036 Y42.403
X66.28 Y43.329
X66.481 Y44.265
X66.64 Y45.21
X66.755 Y46.16
X66.826 Y47.115
X66.854 Y48.073
X66.839 Y49.03
X66.781 Y49.986
X66.68 Y50.939
X66.536 Y51.885
X66.35 Y52.825
X66.122 Y53.755
X65.851 Y54.674
X65.539 Y55.579
X65.185 Y56.469
X64.792 Y57.342
X64.36 Y58.197
X63.89 Y59.031
X63.383 Y59.844
X62.84 Y60.633
X62.263 Y61.397
X61.651 Y62.134
X61.006 Y62.842
X60.33 Y63.52
X59.624 Y64.167
X58.89 Y64.782
X58.129 Y65.363
X57.343 Y65.91
X56.533 Y66.422
X55.701 Y66.897
X54.849 Y67.334
X53.978 Y67.733
X53.09 Y68.091
X52.187 Y68.409
X51.27 Y68.687
X50.343 Y68.924
X49.405 Y69.12
X48.46 Y69.274
X47.509 Y69.387
X46.554 Y69.457
X45.596 Y69.485
X44.639 Y69.469
X43.683 Y69.411
X42.731 Y69.31
X41.784 Y69.168
X40.844 Y68.984
X39.913 Y68.76
X38.992 Y68.495
X38.085 Y68.189
X37.191 Y67.845
X36.313 Y67.462
X35.454 Y67.039
X34.614 Y66.579
X33.794 Y66.084
X32.997 Y65.553
X32.224 Y64.988
X31.475 Y64.391
X30.753 Y63.761
X30.059 Y63.101
X29.395 Y62.412
X28.761 Y61.694
X28.16 Y60.948
X27.592 Y60.177
X27.057 Y59.383
X26.558 Y58.566
X26.093 Y57.728
X25.665 Y56.871
X25.274 Y55.997
X24.922 Y55.107
X24.607 Y54.202
X24.333 Y53.284
X24.099 Y52.356
X23.905 Y51.418
X23.752 Y50.472
X23.639 Y49.521
X23.566 Y48.566
X23.535 Y47.609
X23.544 Y46.652
X23.594 Y45.695
X23.685 Y44.742
X23.819 Y43.794
X23.993 Y42.852
X24.207 Y41.918
X24.46 Y40.995
X24.753 Y40.083
X25.084 Y39.184
X25.452 Y38.3
X25.858 Y37.433
X26.3 Y36.583
X26.779 Y35.754
X27.293 Y34.946
X27.841 Y34.161
X28.423 Y33.4
X29.037 Y32.664
X29.68 Y31.955
X30.354 Y31.274
X31.055 Y30.622
X31.783 Y30
X32.538 Y29.41
X33.316 Y28.853
X34.119 Y28.33
X34.943 Y27.842
X35.787 Y27.389
X36.649 Y26.973
X37.528 Y26.593
X38.423 Y26.25
X39.331 Y25.946
X40.251 Y25.68
X41.181 Y25.453
X42.12 Y25.267
X43.067 Y25.121
X44.019 Y25.016
X44.974 Y24.951
X45.932 Y24.927
X46.889 Y24.942
X47.845 Y24.997
X48.798 Y25.092
X49.747 Y25.227
X50.688 Y25.402
X51.622 Y25.616
X52.545 Y25.87
X53.457 Y26.163
X54.356 Y26.494
X55.24 Y26.861
X56.108 Y27.265
X56.959 Y27.704
X57.792 Y28.178
X58.604 Y28.686
X59.394 Y29.227
X60.161 Y29.8
X60.903 Y30.406
X61.619 Y31.041
X62.309 Y31.706
X62.97 Y32.398
X63.603 Y33.117
X64.207 Y33.861
X64.779 Y34.629
X65.32 Y35.419
X65.828 Y36.231
X66.302 Y37.063
X66.741 Y37.915
X67.144 Y38.783
X67.511 Y39.668
X67.842 Y40.566
X68.136 Y41.478
X68.393 Y42.4
X68.613 Y43.333
X68.794 Y44.273
X68.938 Y45.22
X69.042 Y46.172
X69.107 Y47.127
X69.131 Y48.085
X69.117 Y49.042
X69.063 Y49.998
X68.971 Y50.952
X68.84 Y51.9
X68.671 Y52.843
X68.464 Y53.778
X68.219 Y54.704
X67.937 Y55.619
X67.617 Y56.522
X67.259 Y57.41
X66.866 Y58.283
X66.437 Y59.14
X65.973 Y59.978
X65.476 Y60.796
X64.947 Y61.594
X64.386 Y62.37
X63.794 Y63.123
X63.171 Y63.851
X62.52 Y64.553
X61.84 Y65.228
X61.133 Y65.873
X60.4 Y66.49
X59.642 Y67.076
X58.862 Y67.631
X58.06 Y68.155
X57.238 Y68.646
X56.397 Y69.104
X55.538 Y69.528
X54.663 Y69.916
X53.772 Y70.268
X52.868 Y70.584
X51.952 Y70.862
X51.025 Y71.104
X50.089 Y71.308
X49.146 Y71.475
X48.197 Y71.604
X47.244 Y71.695
X46.287 Y71.748
X45.33 Y71.763
X44.373 Y71.739
X43.417 Y71.676
X42.465 Y71.574
X41.517 Y71.434
X40.576 Y71.257
X39.643 Y71.043
X38.718 Y70.792
X37.805 Y70.504
X36.903 Y70.181
X36.015 Y69.823
X35.142 Y69.43
X34.285 Y69.001
X33.447 Y68.539
X32.627 Y68.044
X31.827 Y67.517
X31.049 Y66.958
X30.293 Y66.37
X29.561 Y65.753
X28.854 Y65.108
X28.172 Y64.435
X27.517 Y63.736
X26.89 Y63.012
X26.293 Y62.263
X25.727 Y61.491
X25.191 Y60.697
X24.686 Y59.883
X24.214 Y59.05
X23.774 Y58.199
X23.368 Y57.332
X22.996 Y56.45
X22.658 Y55.554
X22.355 Y54.645
X22.088 Y53.725
X21.859 Y52.795
X21.666 Y51.857
X21.51 Y50.912
X21.39 Y49.962
X21.308 Y49.008
X21.262 Y48.051
X21.254 Y47.094
X21.282 Y46.137
X21.347 Y45.181
X21.45 Y44.229
X21.59 Y43.281
X21.767 Y42.34
X21.982 Y41.407
X22.232 Y40.483
X22.518 Y39.568
X22.838 Y38.666
X23.193 Y37.777
X23.582 Y36.901
X24.004 Y36.042
X24.46 Y35.199
X24.947 Y34.375
X25.467 Y33.57
X26.018 Y32.787
X26.599 Y32.026
X27.209 Y31.288
X27.847 Y30.574
X28.512 Y29.885
X29.203 Y29.221
X29.919 Y28.585
X30.659 Y27.977
X31.421 Y27.397
X32.206 Y26.848
X33.011 Y26.33
X33.837 Y25.844
X34.68 Y25.391
X35.541 Y24.97
X36.416 Y24.583
X37.306 Y24.229
X38.209 Y23.91
X39.124 Y23.625
X40.048 Y23.375
X40.982 Y23.162
X41.923 Y22.984
X42.87 Y22.844
X43.822 Y22.741
X44.778 Y22.674
X45.735 Y22.645
X46.693 Y22.651
X47.65 Y22.694
X48.604 Y22.774
X49.555 Y22.889
X50.5 Y23.04
X51.44 Y23.227
X52.371 Y23.45
X53.293 Y23.709
X54.204 Y24.004
X55.104 Y24.333
X55.99 Y24.696
X56.862 Y25.092
X57.718 Y25.52
X58.558 Y25.981
X59.38 Y26.472
X60.184 Y26.993
X60.967 Y27.545
X61.728 Y28.125
X62.467 Y28.735
X63.182 Y29.372
X63.872 Y30.036
X64.537 Y30.725
X65.176 Y31.439
X65.788 Y32.175
X66.372 Y32.934
X66.928 Y33.714
X67.455 Y34.514
X67.951 Y35.333
X68.417 Y36.17
X68.851 Y37.024
X69.251 Y37.893
X69.619 Y38.778
X69.953 Y39.675
X70.254 Y40.584
X70.521 Y41.504
X70.754 Y42.433
X70.953 Y43.37
X71.117 Y44.313
X71.246 Y45.262
X71.34 Y46.215
X71.398 Y47.171
X71.419 Y48.129
X71.404 Y49.086
X71.353 Y50.043
X71.267 Y50.997
X71.146 Y51.947
X70.99 Y52.891
X70.799 Y53.83
X70.574 Y54.761
X70.314 Y55.683
X70.021 Y56.594
X69.693 Y57.494
X69.332 Y58.381
X68.937 Y59.254
X68.51 Y60.111
X68.051 Y60.951
X67.562 Y61.775
X67.043 Y62.579
X66.494 Y63.365
X65.917 Y64.129
X65.313 Y64.872
X64.681 Y65.592
X64.023 Y66.288
X63.339 Y66.958
X62.631 Y67.602
X61.899 Y68.22
X61.144 Y68.809
X60.368 Y69.371
X59.573 Y69.904
X58.758 Y70.408
X57.926 Y70.881
X57.077 Y71.324
X56.212 Y71.736
X55.332 Y72.115
X54.439 Y72.461
X53.534 Y72.774
X52.618 Y73.052
X51.692 Y73.297
X50.758 Y73.507
X49.816 Y73.683
X48.869 Y73.826
X47.918 Y73.933
X46.963 Y74.007
X46.006 Y74.045
X45.048 Y74.048
X44.091 Y74.017
X43.136 Y73.949
X42.183 Y73.846
X41.236 Y73.708
X40.294 Y73.536
X39.358 Y73.329
X38.431 Y73.09
X37.513 Y72.817
X36.606 Y72.511
X35.71 Y72.173
X34.826 Y71.803
X33.957 Y71.401
X33.103 Y70.967
X32.266 Y70.502
X31.446 Y70.007
X30.645 Y69.482
X29.863 Y68.929
X29.101 Y68.349
X28.361 Y67.742
X27.643 Y67.108
X26.947 Y66.45
X26.276 Y65.767
X25.629 Y65.06
X25.009 Y64.331
X24.416 Y63.579
X23.85 Y62.806
X23.313 Y62.013
X22.805 Y61.201
X22.326 Y60.372
X21.877 Y59.526
X21.458 Y58.665
X21.07 Y57.789
X20.713 Y56.901
X20.387 Y56
X20.095 Y55.088
X19.835 Y54.166
X19.609 Y53.236
X19.417 Y52.297
X19.258 Y51.353
X19.134 Y50.403
X19.043 Y49.45
X18.986 Y48.494
X18.962 Y47.536
X18.972 Y46.579
X19.016 Y45.622
X19.094 Y44.668
X19.206 Y43.716
X19.352 Y42.77
X19.533 Y41.829
X19.747 Y40.896
X19.994 Y39.971
X20.274 Y39.055
X20.586 Y38.149
X20.929 Y37.255
X21.304 Y36.374
X21.709 Y35.506
X22.145 Y34.653
X22.61 Y33.816
X23.105 Y32.997
X23.63 Y32.195
X24.183 Y31.413
X24.763 Y30.652
X25.371 Y29.911
X26.004 Y29.193
X26.662 Y28.497
X27.344 Y27.824
X28.048 Y27.176
X28.776 Y26.553
X29.524 Y25.955
X30.293 Y25.385
X31.082 Y24.842
X31.891 Y24.328
X32.717 Y23.844
X33.56 Y23.389
X34.418 Y22.965
X35.291 Y22.571
X36.177 Y22.207
X37.075 Y21.875
X37.985 Y21.574
X38.904 Y21.306
X39.832 Y21.069
X40.768 Y20.866
X41.71 Y20.695
X42.658 Y20.559
X43.61 Y20.458
X44.566 Y20.389
X45.523 Y20.355
X46.48 Y20.354
X47.438 Y20.386
X48.393 Y20.451
X49.346 Y20.55
X50.294 Y20.681
X51.238 Y20.845
X52.175 Y21.042
X53.105 Y21.271
X54.026 Y21.534
X54.937 Y21.83
X55.837 Y22.157
X56.725 Y22.516
X57.6 Y22.904
X58.462 Y23.323
X59.308 Y23.771
X60.139 Y24.247
X60.953 Y24.752
X61.749 Y25.285
X62.526 Y25.844
X63.283 Y26.43
X64.019 Y27.043
X64.734 Y27.681
X65.425 Y28.344
X66.093 Y29.03
X66.738 Y29.738
X67.358 Y30.468
X67.953 Y31.218
X68.522 Y31.989
X69.065 Y32.778
X69.58 Y33.585
X70.068 Y34.409
X70.527 Y35.249
X70.957 Y36.105
X71.356 Y36.976
X71.724 Y37.86
X72.063 Y38.756
X72.37 Y39.663
X72.647 Y40.58
X72.892 Y41.505
X73.107 Y42.439
X73.289 Y43.379
X73.44 Y44.325
X73.558 Y45.275
X73.644 Y46.229
X73.696 Y47.185
X73.715 Y48.143
X73.701 Y49.1
X73.653 Y50.057
X73.574 Y51.011
X73.462 Y51.962
X73.317 Y52.909
X73.142 Y53.85
X72.934 Y54.785
X72.695 Y55.713
X72.425 Y56.631
X72.123 Y57.54
X71.79 Y58.438
X71.426 Y59.324
X71.031 Y60.197
X70.606 Y61.055
X70.153 Y61.899
X69.671 Y62.726
X69.161 Y63.537
X68.625 Y64.331
X68.062 Y65.105
X67.473 Y65.861
X66.86 Y66.596
X66.221 Y67.31
X65.559 Y68.001
X64.872 Y68.669
X64.163 Y69.313
X63.432 Y69.932
X62.681 Y70.526
X61.91 Y71.094
X61.12 Y71.636
X60.313 Y72.151
X59.489 Y72.639
X58.649 Y73.099
X57.794 Y73.53
X56.925 Y73.933
X56.043 Y74.306
X55.148 Y74.648
X54.243 Y74.959
X53.327 Y75.238
X52.402 Y75.487
X51.469 Y75.704
X50.53 Y75.89
X49.584 Y76.045
X48.635 Y76.168
X47.681 Y76.259
X46.726 Y76.319
X45.768 Y76.347
X44.811 Y76.342
X43.854 Y76.305
X42.898 Y76.235
X41.946 Y76.132
X40.998 Y75.997
X40.055 Y75.83
X39.118 Y75.633
X38.188 Y75.404
X37.266 Y75.145
X36.353 Y74.855
X35.45 Y74.536
X34.559 Y74.186
X33.679 Y73.808
X32.812 Y73.4
X31.96 Y72.963
X31.124 Y72.497
X30.303 Y72.003
X29.499 Y71.482
X28.713 Y70.935
X27.946 Y70.362
X27.197 Y69.765
X26.469 Y69.143
X25.761 Y68.498
X25.075 Y67.83
X24.411 Y67.14
X23.77 Y66.428
X23.154 Y65.695
X22.563 Y64.941
X21.998 Y64.168
X21.459 Y63.377
X20.946 Y62.568
X20.46 Y61.743
X20.001 Y60.902
X19.57 Y60.047
X19.166 Y59.178
X18.792 Y58.297
X18.446 Y57.404
X18.129 Y56.5
X17.843 Y55.586
X17.587 Y54.663
X17.363 Y53.732
X17.17 Y52.794
X17.008 Y51.85
X16.877 Y50.901
X16.777 Y49.949
X16.708 Y48.994
X16.67 Y48.037
X16.663 Y47.079
X16.687 Y46.122
X16.742 Y45.166
X16.829 Y44.212
X16.947 Y43.261
X17.096 Y42.315
X17.278 Y41.375
X17.49 Y40.441
X17.733 Y39.515
X18.006 Y38.597
X18.309 Y37.688
X18.64 Y36.79
X19.001 Y35.903
X19.39 Y35.027
X19.807 Y34.165
X20.252 Y33.317
X20.724 Y32.484
X21.224 Y31.667
X21.751 Y30.867
X22.304 Y30.085
X22.883 Y29.322
X23.486 Y28.579
X24.113 Y27.855
X24.763 Y27.152
X25.436 Y26.47
X26.13 Y25.81
X26.845 Y25.173
X27.58 Y24.559
X28.334 Y23.969
X29.108 Y23.404
X29.9 Y22.866
X30.709 Y22.354
X31.535 Y21.869
X32.377 Y21.412
X33.232 Y20.982
X34.102 Y20.58
X34.984 Y20.207
X35.877 Y19.862
X36.781 Y19.545
X37.695 Y19.258
X38.617 Y19.001
X39.547 Y18.773
X40.484 Y18.576
X41.428 Y18.41
X42.376 Y18.276
X43.328 Y18.173
X44.283 Y18.101
X45.24 Y18.06
X46.198 Y18.05
X47.155 Y18.071
X48.111 Y18.122
X49.066 Y18.203
X50.017 Y18.315
X50.964 Y18.457
X51.906 Y18.63
X52.842 Y18.833
X53.77 Y19.067
X54.691 Y19.331
X55.602 Y19.625
X56.504 Y19.949
X57.394 Y20.301
X58.273 Y20.681
X59.14 Y21.089
X59.993 Y21.525
X60.832 Y21.986
X61.656 Y22.475
X62.464 Y22.989
X63.255 Y23.528
X64.029 Y24.092
X64.784 Y24.682
X65.519 Y25.295
X66.234 Y25.933
X66.928 Y26.592
X67.601 Y27.274
X68.252 Y27.976
X68.881 Y28.698
X69.487 Y29.44
X70.069 Y30.201
X70.627 Y30.979
X71.161 Y31.774
X71.669 Y32.585
X72.152 Y33.413
X72.607 Y34.255
X73.035 Y35.112
X73.435 Y35.982
X73.807 Y36.865
X74.151 Y37.759
X74.466 Y38.663
X74.754 Y39.576
X75.012 Y40.499
X75.242 Y41.428
X75.443 Y42.365
X75.614 Y43.307
X75.756 Y44.254
X75.868 Y45.205
X75.949 Y46.16
X75.999 Y47.116
X76.018 Y48.073
X76.007 Y49.031
X75.965 Y49.988
X75.894 Y50.943
X75.792 Y51.895
X75.661 Y52.844
X75.5 Y53.788
X75.31 Y54.727
X75.091 Y55.659
X74.843 Y56.584
X74.567 Y57.501
X74.26 Y58.408
X73.925 Y59.305
X73.56 Y60.191
X73.168 Y61.064
X72.748 Y61.925
X72.301 Y62.772
X71.828 Y63.605
X71.33 Y64.423
X70.806 Y65.224
X70.257 Y66.01
X69.685 Y66.777
X69.089 Y67.527
X68.469 Y68.257
X67.827 Y68.968
X67.162 Y69.657
X66.475 Y70.324
X65.767 Y70.969
X65.04 Y71.592
X64.293 Y72.192
X63.528 Y72.767
X62.745 Y73.319
X61.946 Y73.847
X61.13 Y74.349
X60.3 Y74.826
X59.455 Y75.277
X58.597 Y75.702
X57.725 Y76.1
X56.842 Y76.469
X55.947 Y76.81
X55.041 Y77.122
X54.127 Y77.405
X53.203 Y77.66
X52.273 Y77.886
X51.336 Y78.083
X50.393 Y78.251
X49.445 Y78.391
X48.494 Y78.501
X47.54 Y78.581
X46.583 Y78.633
X45.626 Y78.654
X44.668 Y78.645
X43.711 Y78.606
X42.756 Y78.536
X41.804 Y78.436
X40.855 Y78.307
X39.91 Y78.148
X38.971 Y77.961
X38.038 Y77.744
X37.112 Y77.5
X36.194 Y77.227
X35.285 Y76.926
X34.385 Y76.598
X33.496 Y76.243
X32.618 Y75.86
X31.753 Y75.449
X30.901 Y75.011
X30.064 Y74.547
X29.241 Y74.057
X28.433 Y73.542
X27.642 Y73.002
X26.868 Y72.439
X26.111 Y71.852
X25.372 Y71.243
X24.651 Y70.612
X23.951 Y69.959
X23.27 Y69.285
X22.611 Y68.591
X21.973 Y67.876
X21.358 Y67.142
X20.767 Y66.389
X20.199 Y65.617
X19.655 Y64.829
X19.136 Y64.025
X18.641 Y63.205
X18.171 Y62.37
X17.726 Y61.522
X17.307 Y60.661
X16.915 Y59.787
X16.549 Y58.902
X16.209 Y58.007
X15.897 Y57.101
X15.614 Y56.186
X15.36 Y55.263
X15.134 Y54.332
X14.937 Y53.395
X14.769 Y52.452
X14.629 Y51.505
X14.518 Y50.554
X14.436 Y49.599
X14.382 Y48.643
X14.357 Y47.686
X14.361 Y46.728
X14.393 Y45.771
X14.454 Y44.815
X14.545 Y43.862
X14.666 Y42.912
X14.816 Y41.966
X14.995 Y41.025
X15.202 Y40.09
X15.438 Y39.162
X15.702 Y38.241
X15.993 Y37.329
X16.312 Y36.426
X16.657 Y35.533
X17.029 Y34.65
X17.427 Y33.779
X17.851 Y32.92
X18.301 Y32.075
X18.776 Y31.243
X19.278 Y30.427
X19.804 Y29.627
X20.355 Y28.844
X20.929 Y28.077
X21.526 Y27.328
X22.145 Y26.598
X22.786 Y25.886
X23.448 Y25.194
X24.13 Y24.522
X24.832 Y23.871
X25.553 Y23.24
X26.293 Y22.632
X27.05 Y22.046
X27.826 Y21.484
X28.618 Y20.947
X29.427 Y20.434
X30.251 Y19.946
X31.09 Y19.483
X31.942 Y19.045
X32.806 Y18.634
X33.683 Y18.248
X34.571 Y17.889
X35.469 Y17.556
X36.376 Y17.25
X37.292 Y16.971
X38.216 Y16.719
X39.148 Y16.496
X40.086 Y16.302
X41.029 Y16.137
X41.977 Y16.001
X42.929 Y15.893
X43.883 Y15.815
X44.839 Y15.765
X45.797 Y15.743
X46.755 Y15.75
X47.712 Y15.785
X48.667 Y15.849
X49.62 Y15.941
X50.571 Y16.061
X51.517 Y16.209
X52.458 Y16.385
X53.393 Y16.591
X54.322 Y16.825
X55.243 Y17.087
X56.156 Y17.376
X57.06 Y17.693
X57.954 Y18.037
X58.837 Y18.406
X59.71 Y18.802
X60.57 Y19.223
X61.417 Y19.669
X62.251 Y20.139
X63.071 Y20.634
X63.876 Y21.153
X64.666 Y21.695
X65.438 Y22.262
X66.193 Y22.851
X66.929 Y23.463
X67.648 Y24.097
X68.347 Y24.751
X69.026 Y25.426
X69.686 Y26.121
X70.325 Y26.834
X70.942 Y27.566
X71.539 Y28.315
X72.113 Y29.081
X72.665 Y29.864
X73.194 Y30.662
X73.699 Y31.476
X74.18 Y32.305
X74.634 Y33.147
X75.064 Y34.003
X75.468 Y34.872
X75.846 Y35.751
X76.199 Y36.642
X76.525 Y37.542
X76.825 Y38.452
X77.098 Y39.37
X77.345 Y40.295
X77.565 Y41.227
X77.758 Y42.165
X77.924 Y43.109
X78.061 Y44.056
X78.17 Y45.008
X78.251 Y45.962
X78.303 Y46.918
X78.326 Y47.876
X78.321 Y48.833
X78.288 Y49.791
X78.228 Y50.746
X78.139 Y51.7
X78.023 Y52.651
X77.88 Y53.598
X77.709 Y54.54
X77.511 Y55.477
X77.286 Y56.408
X77.034 Y57.332
X76.754 Y58.248
X76.447 Y59.155
X76.112 Y60.052
X75.752 Y60.939
X75.365 Y61.815
X74.953 Y62.68
X74.516 Y63.532
X74.054 Y64.371
X73.568 Y65.196
X73.058 Y66.007
X72.526 Y66.803
X71.97 Y67.583
X71.393 Y68.347
X70.793 Y69.094
X70.171 Y69.822
X69.528 Y70.532
X68.864 Y71.222
X68.179 Y71.892
X67.476 Y72.541
X66.753 Y73.17
X66.013 Y73.777
X65.255 Y74.363
X64.481 Y74.927
X63.691 Y75.468
X62.885 Y75.986
X62.065 Y76.481
X61.232 Y76.952
X60.385 Y77.399
X59.525 Y77.821
X58.653 Y78.217
X57.769 Y78.586
X56.875 Y78.93
X55.972 Y79.247
X55.059 Y79.538
X54.139 Y79.802
X53.211 Y80.039
X52.277 Y80.25
X51.337 Y80.434
X50.392 Y80.591
X49.443 Y80.721
X48.491 Y80.824
X47.536 Y80.899
X46.58 Y80.947
X45.622 Y80.966
X44.665 Y80.957
X43.708 Y80.92
X42.752 Y80.855
X41.799 Y80.762
X40.849 Y80.641
X39.903 Y80.494
X38.961 Y80.319
X38.025 Y80.117
X37.094 Y79.89
X36.171 Y79.635
X35.255 Y79.355
X34.348 Y79.049
X33.449 Y78.717
X32.561 Y78.359
X31.684 Y77.975
X30.818 Y77.565
X29.965 Y77.131
X29.124 Y76.672
X28.298 Y76.189
X27.485 Y75.682
X26.687 Y75.153
X25.904 Y74.601
X25.137 Y74.027
X24.387 Y73.432
X23.653 Y72.816
X22.937 Y72.18
X22.24 Y71.524
X21.562 Y70.848
X20.904 Y70.152
X20.266 Y69.437
X19.649 Y68.705
X19.054 Y67.954
X18.481 Y67.187
X17.929 Y66.404
X17.401 Y65.606
X16.894 Y64.793
X16.411 Y63.966
X15.952 Y63.126
X15.516 Y62.273
X15.104 Y61.408
X14.716 Y60.532
X14.354 Y59.646
X14.017 Y58.75
X13.706 Y57.844
X13.422 Y56.929
X13.164 Y56.007
X12.933 Y55.077
X12.729 Y54.142
X12.55 Y53.201
X12.399 Y52.255
X12.274 Y51.306
X12.176 Y50.353
X12.104 Y49.398
X12.059 Y48.441
X12.041 Y47.484
X12.05 Y46.526
X12.085 Y45.569
X12.149 Y44.614
X12.24 Y43.66
X12.359 Y42.71
X12.504 Y41.763
X12.677 Y40.821
X12.876 Y39.885
X13.102 Y38.954
X13.353 Y38.03
X13.631 Y37.113
X13.933 Y36.204
X14.261 Y35.305
X14.614 Y34.414
X14.991 Y33.534
X15.393 Y32.665
X15.82 Y31.807
X16.271 Y30.963
X16.746 Y30.131
X17.245 Y29.314
X17.768 Y28.511
X18.312 Y27.723
X18.879 Y26.951
X19.467 Y26.195
X20.076 Y25.456
X20.706 Y24.735
X21.355 Y24.031
X22.024 Y23.345
X22.711 Y22.678
X23.417 Y22.03
X24.14 Y21.403
X24.881 Y20.796
X25.64 Y20.212
X26.414 Y19.649
X27.205 Y19.108
X28.011 Y18.59
X28.831 Y18.096
X29.664 Y17.624
X30.511 Y17.176
X31.369 Y16.752
X32.239 Y16.352
X33.12 Y15.976
X34.011 Y15.625
X34.912 Y15.298
X35.82 Y14.997
X36.738 Y14.721
X37.662 Y14.472
X38.594 Y14.249
X39.531 Y14.053
X40.474 Y13.884
X41.421 Y13.741
X42.372 Y13.626
X43.325 Y13.537
X44.281 Y13.474
X45.238 Y13.438
X46.195 Y13.429
X47.153 Y13.446
X48.11 Y13.489
X49.065 Y13.559
X50.018 Y13.655
X50.968 Y13.777
X51.913 Y13.927
X52.855 Y14.104
X53.791 Y14.307
X54.72 Y14.537
X55.643 Y14.792
X56.559 Y15.074
X57.466 Y15.38
X58.365 Y15.712
X59.253 Y16.068
X60.132 Y16.449
X61.001 Y16.853
X61.857 Y17.281
X62.702 Y17.732
X63.534 Y18.206
X64.353 Y18.703
X65.157 Y19.223
X65.946 Y19.765
X66.72 Y20.33
X67.478 Y20.916
X68.219 Y21.522
X68.943 Y22.149
X69.649 Y22.796
X70.337 Y23.462
X71.007 Y24.146
X71.659 Y24.848
X72.29 Y25.568
X72.902 Y26.305
X73.494 Y27.058
X74.066 Y27.826
X74.616 Y28.61
X75.143 Y29.409
X75.648 Y30.223
X76.131 Y31.051
X76.589 Y31.891
X77.025 Y32.744
X77.437 Y33.609
X77.825 Y34.484
X78.189 Y35.37
X78.528 Y36.266
X78.844 Y37.17
X79.135 Y38.082
X79.401 Y39.002
X79.642 Y39.929
X79.858 Y40.862
X80.048 Y41.801
X80.212 Y42.744
X80.35 Y43.692
X80.461 Y44.643
X80.545 Y45.597
X80.604 Y46.553
X80.635 Y47.51
X80.641 Y48.468
X80.621 Y49.426
X80.574 Y50.382
X80.502 Y51.337
X80.404 Y52.29
X80.28 Y53.239
X80.13 Y54.185
X79.955 Y55.127
X79.755 Y56.063
X79.528 Y56.994
X79.276 Y57.918
X78.998 Y58.834
X78.694 Y59.743
X78.366 Y60.642
X78.013 Y61.532
X77.635 Y62.413
X77.234 Y63.282
X76.809 Y64.141
X76.362 Y64.987
X75.891 Y65.821
X75.398 Y66.642
X74.884 Y67.45
X74.347 Y68.244
X73.79 Y69.022
X73.211 Y69.785
X72.611 Y70.531
X71.99 Y71.261
X71.349 Y71.973
X70.689 Y72.667
X70.011 Y73.342
X69.314 Y73.999
X68.599 Y74.637
X67.868 Y75.255
X67.12 Y75.853
X66.356 Y76.431
X65.577 Y76.988
X64.783 Y77.523
X63.975 Y78.038
X63.154 Y78.53
X62.319 Y79
X61.472 Y79.446
X60.612 Y79.869
X59.742 Y80.268
X58.86 Y80.643
X57.969 Y80.993
X57.069 Y81.319
X56.16 Y81.621
X55.243 Y81.898
X54.319 Y82.15
X53.389 Y82.377
X52.453 Y82.58
X51.511 Y82.757
X50.566 Y82.909
X49.617 Y83.036
X48.664 Y83.137
X47.709 Y83.211
X46.753 Y83.26
X45.796 Y83.281
X44.838 Y83.277
X43.881 Y83.247
X42.925 Y83.191
X41.97 Y83.108
X41.019 Y83.001
X40.07 Y82.868
X39.126 Y82.709
X38.186 Y82.526
X37.251 Y82.317
X36.322 Y82.084
X35.4 Y81.826
X34.485 Y81.544
X33.578 Y81.237
X32.679 Y80.905
X31.79 Y80.549
X30.912 Y80.168
X30.043 Y79.764
X29.186 Y79.337
X28.341 Y78.887
X27.508 Y78.414
X26.688 Y77.919
X25.881 Y77.403
X25.089 Y76.866
X24.31 Y76.307
X23.547 Y75.729
X22.799 Y75.131
X22.068 Y74.513
X21.353 Y73.875
X20.656 Y73.218
X19.977 Y72.543
X19.317 Y71.849
X18.675 Y71.138
X18.053 Y70.41
X17.451 Y69.666
X16.868 Y68.905
X16.307 Y68.13
X15.765 Y67.34
X15.245 Y66.535
X14.747 Y65.718
X14.27 Y64.887
X13.814 Y64.045
X13.381 Y63.19
X12.971 Y62.325
X12.585 Y61.449
X12.222 Y60.562
X11.883 Y59.667
X11.569 Y58.762
X11.279 Y57.849
X11.013 Y56.929
X10.772 Y56.002
X10.556 Y55.069
X10.365 Y54.131
X10.198 Y53.188
X10.056 Y52.241
X9.939 Y51.29
X9.847 Y50.337
X9.779 Y49.382
X9.737 Y48.425
X9.72 Y47.467
X9.729 Y46.51
X9.764 Y45.553
X9.825 Y44.597
X9.911 Y43.643
X10.023 Y42.692
X10.159 Y41.744
X10.321 Y40.8
X10.508 Y39.861
X10.72 Y38.927
X10.956 Y37.999
X11.216 Y37.077
X11.5 Y36.162
X11.808 Y35.256
X12.139 Y34.357
X12.494 Y33.467
X12.872 Y32.588
X13.274 Y31.718
X13.699 Y30.86
X14.147 Y30.014
X14.618 Y29.179
X15.11 Y28.358
X15.624 Y27.55
X16.159 Y26.756
X16.715 Y25.976
X17.292 Y25.211
X17.888 Y24.462
X18.503 Y23.728
X19.137 Y23.01
X19.79 Y22.309
X20.461 Y21.626
X21.149 Y20.96
X21.855 Y20.313
X22.579 Y19.685
X23.318 Y19.077
X24.074 Y18.489
X24.845 Y17.921
X25.631 Y17.373
X26.431 Y16.847
X27.245 Y16.342
X28.071 Y15.858
X28.91 Y15.397
X29.761 Y14.957
X30.623 Y14.539
X31.496 Y14.145
X32.378 Y13.772
X33.27 Y13.423
X34.171 Y13.098
X35.08 Y12.797
X35.997 Y12.52
X36.921 Y12.268
X37.851 Y12.04
X38.787 Y11.838
X39.728 Y11.66
X40.673 Y11.507
X41.622 Y11.378
X42.574 Y11.275
X43.529 Y11.196
X44.485 Y11.143
X45.442 Y11.114
X46.4 Y11.11
X47.357 Y11.13
X48.314 Y11.176
X49.269 Y11.246
X50.222 Y11.342
X51.172 Y11.463
X52.118 Y11.61
X53.061 Y11.781
X53.998 Y11.977
X54.93 Y12.197
X55.856 Y12.442
X56.775 Y12.711
X57.687 Y13.004
X58.591 Y13.32
X59.487 Y13.659
X60.373 Y14.022
X61.25 Y14.406
X62.117 Y14.814
X62.973 Y15.243
X63.817 Y15.695
X64.359 Y16.004
X65.14 Y16.479
X66.01 Y17.011
X66.089 Y17.06
X66.445 Y17.29
X66.663 Y17.433
X67.326 Y17.93
X68.19 Y18.582
X69.055 Y19.237
X69.585 Y19.669
X69.925 Y19.981
X70.36 Y20.38
X71.47 Y21.408
X71.704 Y21.626
X71.883 Y21.799
X72.142 Y22.061
X72.318 Y22.244
X72.97 Y22.975
X74.083 Y24.235
X74.275 Y24.461
X74.71 Y25.006
X74.786 Y25.105
X75.363 Y25.899
X76.355 Y27.279
X76.45 Y27.423
X76.777 Y27.931
X76.885 Y28.104
X77.321 Y28.849
X78.423 Y30.758
X78.525 Y30.975
X78.923 Y31.845
X79.278 Y32.627
X79.906 Y34.019
X79.984 Y34.237
X80.148 Y34.702
X80.366 Y35.337
X80.873 Y36.846
X81.087 Y37.498
X81.147 Y37.716
X81.453 Y39.025
X81.75 Y40.325
X81.799 Y40.542
X81.933 Y41.195
X81.966 Y41.412
X82.108 Y42.499
X82.299 Y44.021
X82.325 Y44.239
X82.387 Y44.891
X82.396 Y45.108
X82.428 Y46.195
X82.445 Y46.848
X82.467 Y47.717
X82.47 Y47.935
X82.463 Y48.587
X82.45 Y48.805
X82.388 Y49.674
X82.341 Y50.327
X82.259 Y51.414
X82.239 Y51.631
X82.163 Y52.283
X82.014 Y53.153
X81.862 Y54.023
X81.671 Y55.111
X81.625 Y55.327
X81.526 Y55.762
X81.474 Y55.98
X81.234 Y56.849
X80.929 Y57.937
X80.684 Y58.806
X80.616 Y59.024
X80.455 Y59.459
X80.366 Y59.698
X80.122 Y60.328
X79.61 Y61.633
X79.524 Y61.85
X79.258 Y62.503
X79.152 Y62.72
X78.711 Y63.59
X78.378 Y64.242
X77.709 Y65.547
X77.538 Y65.828
X77.309 Y66.199
X76.885 Y66.863
X75.91 Y68.373
X75.759 Y68.591
X75.58 Y68.843
X75.448 Y69.026
X74.71 Y69.96
X73.623 Y71.324
X73.356 Y71.635
X73.188 Y71.82
X72.528 Y72.504
X71.448 Y73.613
X71.23 Y73.836
X71.043 Y74.026
X70.795 Y74.265
X70.567 Y74.461
X69.797 Y75.114
X68.185 Y76.467
X67.957 Y76.636
X67.315 Y77.08
X66.88 Y77.379
X65.358 Y78.418
X65.14 Y78.563
X64.923 Y78.692
X63.835 Y79.291
X63.124 Y79.68
X62.313 Y80.121
X62.095 Y80.231
X61.66 Y80.439
X61.443 Y80.541
X60.573 Y80.913
X58.833 Y81.646
X58.615 Y81.737
X58.398 Y81.814
X57.093 Y82.223
X55.788 Y82.626
X55.57 Y82.692
X54.918 Y82.873
X54.7 Y82.923
X53.83 Y83.104
X52.96 Y83.281
X52.09 Y83.456
X51.873 Y83.499
X51.22 Y83.597
X51.003 Y83.623
X48.393 Y83.891
X48.175 Y83.911
X47.523 Y83.938
X47.305 Y83.941
X44.695 Y83.948
X44.477 Y83.946
X43.825 Y83.908
X43.607 Y83.889
X42.737 Y83.806
X40.997 Y83.632
X40.78 Y83.605
X40.127 Y83.494
X39.692 Y83.41
X39.257 Y83.324
X37.3 Y82.929
X37.082 Y82.878
X36.43 Y82.688
X35.777 Y82.491
X34.255 Y82.022
X33.602 Y81.81
X33.385 Y81.732
X32.515 Y81.37
X31.862 Y81.097
X30.557 Y80.547
X30.34 Y80.442
X29.905 Y80.227
X29.684 Y80.115
X29.035 Y79.765
X27.077 Y78.7
X26.911 Y78.593
X25.942 Y77.94
X24.666 Y77.071
X24.25 Y76.776
X24.032 Y76.621
X23.815 Y76.459
X22.945 Y75.737
X21.64 Y74.641
X21.422 Y74.457
X21.205 Y74.271
X20.32 Y73.374
X19.895 Y72.939
X18.812 Y71.829
X18.639 Y71.635
X18.377 Y71.316
X17.725 Y70.505
X16.544 Y69.026
X16.42 Y68.849
X16.095 Y68.373
X15.669 Y67.721
X14.826 Y66.416
X14.679 Y66.188
X14.298 Y65.547
X13.809 Y64.606
X13.157 Y63.335
X12.842 Y62.72
X12.739 Y62.503
X12.22 Y61.198
X11.622 Y59.676
X11.543 Y59.459
X11.391 Y59.024
X11.321 Y58.806
X11.072 Y57.937
X10.826 Y57.067
X10.52 Y55.98
X10.471 Y55.762
X10.378 Y55.327
X10.329 Y55.086
X10.215 Y54.458
X9.894 Y52.644
X9.831 Y52.283
X9.786 Y51.849
X9.764 Y51.631
X9.745 Y51.414
X9.692 Y50.761
X9.545 Y48.805
X9.53 Y48.587
X9.533 Y47.935
X9.537 Y47.717
X9.55 Y47.065
X9.598 Y45.108
X9.607 Y44.891
X9.678 Y44.239
X9.756 Y43.586
X9.837 Y42.934
X10.028 Y41.412
X10.061 Y41.195
X10.204 Y40.542
X10.399 Y39.673
X10.697 Y38.368
X10.854 Y37.716
X10.915 Y37.498
X11.346 Y36.194
X11.858 Y34.672
X12.069 Y34.1
X12.101 Y34.019
X12.504 Y33.112
X12.977 Y32.062
X13.374 Y31.181
X13.469 Y30.975
X13.592 Y30.745
X14.244 Y29.602
X15.115 Y28.095
X15.219 Y27.931
X15.55 Y27.43
X15.651 Y27.279
X16.202 Y26.504
X17.208 Y25.105
X17.29 Y24.998
X17.736 Y24.452
X17.942 Y24.212
X18.493 Y23.583
X19.682 Y22.235
X19.854 Y22.061
X20.117 Y21.803
X20.335 Y21.595
X20.999 Y20.974
X22.405 Y19.669
X22.727 Y19.414
X22.956 Y19.234
X23.815 Y18.578
X25.337 Y17.425
X25.569 Y17.277
X25.99 Y17.015
X26.977 Y16.407
X28.165 Y15.682
X28.382 Y15.555
X29.035 Y15.219
X29.716 Y14.885
X31.21 Y14.166
X31.427 Y14.066
X31.862 Y13.874
X32.039 Y13.798
X33.216 Y13.363
X35.009 Y12.711
X35.125 Y12.67
X35.342 Y12.607
X36.43 Y12.324
X38.605 Y11.77
X38.822 Y11.732
X39.257 Y11.66
X39.481 Y11.624
X40.127 Y11.523
X41.65 Y11.294
X42.302 Y11.198
X42.52 Y11.185
X43.825 Y11.113
X45.13 Y11.048
X45.347 Y11.038
X46 Y11.012
X46.87 Y11.05
X47.523 Y11.08
X49.48 Y11.178
X49.601 Y11.189
X49.915 Y11.234
X51.098 Y11.407
X52.542 Y11.624
X52.743 Y11.658
X53.178 Y11.736
X53.395 Y11.776
X54.265 Y11.993
X55.135 Y12.213
X56.239 Y12.494
X56.44 Y12.548
X56.658 Y12.609
X56.875 Y12.676
X57.745 Y12.987
X58.833 Y13.381
X59.979 Y13.798
X60.138 Y13.869
X60.573 Y14.068
X60.79 Y14.17
X61.443 Y14.48
X62.748 Y15.109
X62.965 Y15.214
X63.618 Y15.56
X63.835 Y15.687
X64.359 Y16.004
X64.399 Y16.042 Z-9.993
X64.437 Y16.077 Z-9.974
X64.47 Y16.109 Z-9.943
X64.497 Y16.135 Z-9.902
X64.517 Y16.153 Z-9.853
X64.524 Y16.164 Z-9.81
X64.527 Y16.168 Z-9.764
G0 Z5
X38.625 Y12.994
Z-7.8
G1 Z-8.4 F349
X38.631 Y12.99 Z-8.494
X38.648 Y12.976 Z-8.585
X38.676 Y12.953 Z-8.672
X38.714 Y12.922 Z-8.753
X38.761 Y12.883 Z-8.824
X38.817 Y12.838 Z-8.885
X38.879 Y12.787 Z-8.935
X38.947 Y12.732 Z-8.971
X39.017 Y12.675 Z-8.993
X39.09 Y12.615 Z-9
G3 X42.085 Y11.229 I4.203 J5.153
G1 X42.302 Y11.197
X42.418 Y11.189
X42.653 Y11.177
X45.547 Y11.032
X45.782 Y11.02
X46 Y11.011
X46.218 Y11.02
G3 X46.443 Y11.084 I-0.048 J0.598
G1 X46.526 Y11.127 Z-8.993
X46.608 Y11.168 Z-8.971
X46.685 Y11.208 Z-8.935
X46.757 Y11.244 Z-8.885
X46.821 Y11.277 Z-8.824
X46.875 Y11.305 Z-8.753
X46.919 Y11.327 Z-8.672
X46.951 Y11.344 Z-8.585
X46.971 Y11.354 Z-8.494
X46.977 Y11.357 Z-8.4
G0 Z5
X25.033 Y75.889
Z-7.8
G1 Z-8.4 F349
X25.025 Y75.888 Z-8.494
X25.004 Y75.885 Z-8.585
X24.968 Y75.879 Z-8.672
X24.92 Y75.871 Z-8.753
X24.859 Y75.861 Z-8.824
X24.789 Y75.849 Z-8.885
X24.71 Y75.836 Z-8.935
X24.624 Y75.821 Z-8.971
X24.533 Y75.806 Z-8.993
X24.441 Y75.791 Z-9
G3 X21.422 Y74.458 I1.093 J-6.559
G1 X21.205 Y74.272
X21.176 Y74.244
X21.147 Y74.197 Z-8.993
X21.119 Y74.153 Z-8.974
X21.095 Y74.115 Z-8.943
X21.075 Y74.083 Z-8.902
X21.061 Y74.06 Z-8.853
X21.056 Y74.048 Z-8.81
X21.055 Y74.044 Z-8.764
G0 Z5
X72.785 Y70.6
Z-6.8
G1 Z-7.4 F349
X72.783 Y70.607 Z-7.494
X72.778 Y70.628 Z-7.585
X72.768 Y70.663 Z-7.672
X72.756 Y70.71 Z-7.753
X72.74 Y70.769 Z-7.824
X72.721 Y70.839 Z-7.885
X72.701 Y70.916 Z-7.935
X72.678 Y71 Z-7.971
X72.654 Y71.089 Z-7.993
X72.63 Y71.179 Z-8
G3 X71.013 Y74.056 I-6.424 J-1.719
G1 X70.795 Y74.268
X70.578 Y74.455
G3 X70.369 Y74.561 I-0.372 J-0.471
G1 X70.279 Y74.587 Z-7.993
X70.191 Y74.612 Z-7.971
X70.107 Y74.635 Z-7.935
X70.03 Y74.657 Z-7.885
X69.961 Y74.677 Z-7.824
X69.902 Y74.693 Z-7.753
X69.855 Y74.707 Z-7.672
X69.82 Y74.717 Z-7.585
X69.799 Y74.723 Z-7.494
X69.792 Y74.725 Z-7.4
G0 Z5
X25.035 Y75.884
Z-6.8
G1 Z-7.4 F349
X25.028 Y75.883 Z-7.494
X25.006 Y75.88 Z-7.585
X24.97 Y75.874 Z-7.672
X24.922 Y75.866 Z-7.753
X24.862 Y75.856 Z-7.824
X24.791 Y75.844 Z-7.885
X24.712 Y75.831 Z-7.935
X24.626 Y75.817 Z-7.971
X24.536 Y75.802 Z-7.993
X24.443 Y75.787 Z-8
G3 X21.422 Y74.458 I1.083 J-6.561
G1 X21.205 Y74.274
X21.175 Y74.244
G3 X21.053 Y73.978 I0.348 J-0.32
G2 X20.163 Y70.435 I-13.902 J1.608
X20.092 Y70.304 I-0.558 J0.221
G1 X16.23 Y64.959
G2 X16.128 Y64.85 I-0.486 J0.351
X13.044 Y62.893 I-8.977 J10.736
G3 X12.824 Y62.684 I0.199 J-0.429
G1 X12.737 Y62.503
X12.722 Y62.466
G3 X12.687 Y62.234 I0.565 J-0.203
G1 X12.692 Y62.14 Z-7.993
X12.696 Y62.049 Z-7.971
X12.7 Y61.962 Z-7.935
X12.704 Y61.882 Z-7.885
X12.708 Y61.81 Z-7.824
X12.711 Y61.749 Z-7.753
X12.713 Y61.7 Z-7.672
X12.715 Y61.664 Z-7.585
X12.716 Y61.642 Z-7.494
Y61.635 Z-7.4
G0 Z5
X38.628 Y12.999
Z-6.8
G1 Z-7.4 F349
X38.633 Y12.994 Z-7.494
X38.65 Y12.98 Z-7.585
X38.678 Y12.957 Z-7.672
X38.716 Y12.926 Z-7.753
X38.764 Y12.887 Z-7.824
X38.819 Y12.842 Z-7.885
X38.881 Y12.791 Z-7.935
X38.949 Y12.736 Z-7.971
X39.019 Y12.678 Z-7.993
X39.092 Y12.619 Z-8
G3 X42.085 Y11.228 I4.21 J5.147
G1 X42.302 Y11.196
X42.399 Y11.189
X42.52 Y11.182
X42.755 Y11.171
X45.547 Y11.031
X45.782 Y11.019
X46 Y11.01
X46.218 Y11.019
X46.452 Y11.043
X52.943 Y11.71
X53.178 Y11.734
X53.395 Y11.774
X53.613 Y11.828
G3 X53.852 Y11.99 I-0.129 J0.45
G2 X56.428 Y14.518 I10.89 J-8.517
X56.554 Y14.591 I0.361 J-0.479
G1 X62.411 Y17.083
G2 X62.551 Y17.123 I0.235 J-0.552
X66.158 Y17.225 I2.192 J-13.65
G3 X66.445 Y17.289 I0.048 J0.466
G1 X66.663 Y17.43
X66.749 Y17.495
G3 X66.899 Y17.674 I-0.376 J0.467
G1 X66.944 Y17.757 Z-7.993
X66.988 Y17.837 Z-7.971
X67.029 Y17.913 Z-7.935
X67.068 Y17.984 Z-7.885
X67.102 Y18.046 Z-7.824
X67.132 Y18.1 Z-7.753
X67.155 Y18.143 Z-7.672
X67.173 Y18.175 Z-7.585
X67.183 Y18.194 Z-7.494
X67.187 Y18.201 Z-7.4
G0 Z5
X79.585 Y58.408
Z-6.8
G1 Z-7.4 F349
X79.586 Y58.416 Z-7.494
X79.589 Y58.437 Z-7.585
X79.595 Y58.473 Z-7.672
X79.602 Y58.522 Z-7.753
X79.611 Y58.582 Z-7.824
X79.622 Y58.653 Z-7.885
X79.634 Y58.732 Z-7.935
X79.647 Y58.818 Z-7.971
X79.661 Y58.909 Z-7.993
X79.675 Y59.002 Z-8
G3 X79.348 Y62.285 I-6.573 J1.003
G1 X79.26 Y62.503
X79.154 Y62.72
X79.061 Y62.905
X79.026 Y62.947 Z-7.993
X78.993 Y62.987 Z-7.974
X78.964 Y63.023 Z-7.943
X78.94 Y63.052 Z-7.902
X78.923 Y63.073 Z-7.853
X78.913 Y63.081 Z-7.81
X78.91 Y63.084 Z-7.764
G0 Z5
X25.037 Y75.879
Z-5.8
G1 Z-6.4 F349
X25.03 Y75.878 Z-6.494
X25.008 Y75.875 Z-6.585
X24.973 Y75.869 Z-6.672
X24.924 Y75.861 Z-6.753
X24.864 Y75.851 Z-6.824
X24.793 Y75.84 Z-6.885
X24.714 Y75.827 Z-6.935
X24.628 Y75.813 Z-6.971
X24.538 Y75.798 Z-6.993
X24.445 Y75.783 Z-7
G3 X21.422 Y74.459 I1.072 J-6.562
G1 X21.205 Y74.275
X20.77 Y73.834
G3 X20.66 Y73.628 I0.345 J-0.316
X20.65 Y73.571 I0.454 J-0.11
G2 X19.362 Y69.827 I-9.087 J1.034
X19.321 Y69.769 I-0.512 J0.313
G1 X18.079 Y68.192
G2 X18.032 Y68.14 I-0.471 J0.371
X14.694 Y66.011 I-6.47 J6.465
G3 X14.634 Y65.984 I0.16 J-0.439
X14.462 Y65.827 I0.22 J-0.413
G1 X14.294 Y65.547
X14.182 Y65.329
X14.074 Y65.12
X12.932 Y62.894
X12.824 Y62.684
X12.736 Y62.503
X12.475 Y61.85
X12.39 Y61.633
G3 X12.367 Y61.415 I0.442 J-0.156
G1 X12.369 Y61.401
G2 X13.083 Y53.349 I-92.021 J-12.212
Y53.314 I-0.599 J-0.027
G1 X12.936 Y42.536
G2 X12.935 Y42.501 I-0.6 J0.008
X12.002 Y34.469 I-92.587 J6.687
G1 X12 Y34.457
G3 X12.017 Y34.237 I0.463 J-0.074
G1 X12.069 Y34.093
X12.097 Y34.019
X12.194 Y33.802
G3 X12.334 Y33.633 I0.422 J0.206
G1 X12.345 Y33.624
G2 X18.454 Y28.604 I-54.539 J-72.594
X18.482 Y28.578 I-0.401 J-0.447
G1 X26.537 Y20.362
G2 X26.563 Y20.334 I-0.428 J-0.42
X31.467 Y14.119 I-68.757 J-59.303
G1 X31.47 Y14.115
G3 X31.645 Y13.968 I0.381 J0.274
G1 X31.862 Y13.871
X32.03 Y13.798
X32.08 Y13.78
G3 X32.372 Y13.779 I0.148 J0.448
G2 X35.905 Y14.419 I4.197 J-13.099
X36.052 Y14.408 I0.029 J-0.599
G1 X42.363 Y13.136
G2 X42.503 Y13.089 I-0.119 J-0.588
X45.513 Y11.13 I-5.934 J-12.409
G3 X45.562 Y11.094 I0.307 J0.359
X45.782 Y11.018 I0.258 J0.395
G1 X46 Y11.009
X46.653 Y11.038
X46.87 Y11.048
G3 X47.19 Y11.213 I-0.04 J0.469
G2 X49.022 Y12.742 I5.251 J-4.43
X49.227 Y12.814 I0.299 J-0.52
G1 X53.655 Y13.508
G2 X53.873 Y13.502 I0.093 J-0.593
X56.085 Y12.607 I-1.432 J-6.719
G3 X56.44 Y12.548 I0.25 J0.399
G1 X56.658 Y12.607
X56.875 Y12.672
X57.31 Y12.829
G3 X57.498 Y12.966 I-0.174 J0.435
X57.533 Y13.014 I-0.362 J0.298
G2 X59.794 Y15.741 I11.485 J-7.226
X59.912 Y15.826 I0.408 J-0.44
G1 X65.391 Y18.846
G2 X65.526 Y18.9 I0.29 J-0.525
X69.038 Y19.357 I3.492 J-13.112
G3 X69.321 Y19.452 I0.001 J0.469
G1 X69.59 Y19.669
X69.925 Y19.977
X70.063 Y20.104
G3 X70.178 Y20.29 I-0.33 J0.332
G1 X70.183 Y20.304
G2 X73.034 Y27.845 I87.946 J-28.945
X73.049 Y27.877 I0.551 J-0.236
G1 X77.931 Y37.624
G2 X77.948 Y37.655 I0.536 J-0.269
X82.281 Y44.457 I80.181 J-46.296
G1 X82.288 Y44.467
G3 X82.368 Y44.673 I-0.383 J0.268
G1 X82.39 Y44.891
X82.399 Y45.108
X82.406 Y45.326
X82.411 Y45.561
X82.463 Y48.134
X82.468 Y48.37
X82.467 Y48.587
X82.452 Y48.805
X82.437 Y49.022
X82.419 Y49.257
X82.233 Y51.614
X82.215 Y51.849
X82.166 Y52.283
X82.106 Y52.638
X82.085 Y52.688 Z-6.993
X82.065 Y52.736 Z-6.974
X82.048 Y52.779 Z-6.943
X82.034 Y52.814 Z-6.902
X82.023 Y52.838 Z-6.853
X82.016 Y52.849 Z-6.81
X82.014 Y52.853 Z-6.764
G0 Z5
X78.605 Y33.964
Z-4.8
G1 Z-5.4 F349
X78.611 Y33.969 Z-5.494
X78.627 Y33.983 Z-5.585
X78.655 Y34.006 Z-5.672
X78.692 Y34.039 Z-5.753
X78.738 Y34.079 Z-5.824
X78.792 Y34.125 Z-5.885
X78.853 Y34.178 Z-5.935
X78.919 Y34.234 Z-5.971
X78.988 Y34.294 Z-5.993
X79.06 Y34.356 Z-6
G3 X80.946 Y37.063 I-4.342 J5.036
G1 X81.091 Y37.498
X81.152 Y37.716
X81.303 Y38.368
X81.353 Y38.585
X81.405 Y38.815
X81.793 Y40.53
X81.845 Y40.76
X81.936 Y41.195
X81.97 Y41.412
X82.026 Y41.847
G3 X81.995 Y42.064 I-0.468 J0.043
G2 X81.99 Y42.077 I38.096 J15.165
X80.818 Y45.442 I38.102 J15.152
X80.798 Y45.537 I0.575 J0.172
G1 X79.112 Y58.406
G2 X79.107 Y58.503 I0.595 J0.078
X79.372 Y62.053 I40.984 J-1.274
X79.374 Y62.07 I40.719 J-4.824
G3 X79.35 Y62.285 I-0.467 J0.055
G1 X79.262 Y62.503
X79.156 Y62.72
X78.935 Y63.155
X78.816 Y63.358
X75.879 Y68.387
X75.76 Y68.591
X75.58 Y68.848
X75.453 Y69.026
X75.145 Y69.414
X74.989 Y69.59
X71.17 Y73.88
X71.013 Y74.056
X70.795 Y74.271
X70.573 Y74.461
X70.316 Y74.679
X70.143 Y74.824
G3 X69.934 Y74.93 I-0.369 J-0.473
G1 X69.843 Y74.955 Z-5.993
X69.755 Y74.979 Z-5.971
X69.671 Y75.002 Z-5.935
X69.594 Y75.024 Z-5.885
X69.525 Y75.043 Z-5.824
X69.466 Y75.059 Z-5.753
X69.419 Y75.072 Z-5.672
X69.384 Y75.082 Z-5.585
X69.363 Y75.088 Z-5.494
X69.356 Y75.09 Z-5.4
G0 Z5
X37.921 Y81.891
Z-4.8
G1 Z-5.4 F349
X37.914 Y81.893 Z-5.494
X37.892 Y81.898 Z-5.585
X37.857 Y81.906 Z-5.672
X37.809 Y81.917 Z-5.753
X37.75 Y81.931 Z-5.824
X37.68 Y81.947 Z-5.885
X37.602 Y81.965 Z-5.935
X37.517 Y81.985 Z-5.971
X37.428 Y82.006 Z-5.993
X37.336 Y82.027 Z-6
G3 X34.037 Y81.953 I-1.505 J-6.477
G1 X33.602 Y81.814
X33.385 Y81.736
X32.95 Y81.555
X32.732 Y81.464
G3 X32.552 Y81.316 I0.197 J-0.425
X32.489 Y81.2 I0.378 J-0.278
G2 X31.309 Y79.168 I-6.35 J2.331
X31.14 Y79.03 I-0.459 J0.387
G1 X27.266 Y76.898
G2 X27.058 Y76.829 I-0.289 J0.526
X24.711 Y76.919 I-0.919 J6.702
G3 X24.356 Y76.853 I-0.099 J-0.458
G1 X24.032 Y76.626
X23.815 Y76.464
X23.597 Y76.282
G3 X23.467 Y76.089 I0.317 J-0.354
X23.45 Y76.028 I0.447 J-0.16
G2 X22.476 Y72.872 I-18.528 J3.986
X22.391 Y72.725 I-0.556 J0.226
G1 X16.013 Y64.675
G2 X15.89 Y64.558 I-0.47 J0.373
X13.039 Y62.889 I-10.968 J15.456
G3 X12.824 Y62.684 I0.204 J-0.429
G1 X12.735 Y62.503
X12.722 Y62.471
G3 X12.698 Y62.253 I0.442 J-0.158
G2 X12.7 Y62.239 I-57.72 J-7.415
X13.125 Y57.194 I-57.722 J-7.401
X13.124 Y57.122 I-0.6 J-0.024
G1 X12.014 Y43.302
G2 X12.003 Y43.23 I-0.598 J0.048
X10.777 Y38.312 I-57.025 J11.608
G1 X10.775 Y38.304
G3 X10.764 Y38.08 I0.45 J-0.133
G1 X10.85 Y37.716
X10.911 Y37.498
X11.127 Y36.846
G3 X11.25 Y36.647 I0.562 J0.211
G1 X11.315 Y36.578 Z-5.993
X11.377 Y36.512 Z-5.971
X11.436 Y36.448 Z-5.935
X11.491 Y36.389 Z-5.885
X11.54 Y36.337 Z-5.824
X11.582 Y36.292 Z-5.753
X11.616 Y36.256 Z-5.672
X11.64 Y36.23 Z-5.585
X11.655 Y36.214 Z-5.494
X11.66 Y36.209 Z-5.4
G0 Z5
X42.161 Y12.421
Z-4.8
G1 Z-5.4 F349
X42.167 Y12.417 Z-5.494
X42.185 Y12.405 Z-5.585
X42.215 Y12.385 Z-5.672
X42.256 Y12.358 Z-5.753
X42.308 Y12.324 Z-5.824
X42.367 Y12.285 Z-5.885
X42.434 Y12.241 Z-5.935
X42.507 Y12.193 Z-5.971
X42.584 Y12.142 Z-5.993
X42.662 Y12.091 Z-6
G3 X45.782 Y11.017 I3.656 J5.555
G1 X46 Y11.008
X46.218 Y11.017
X46.452 Y11.042
X52.943 Y11.709
X53.178 Y11.733
X53.395 Y11.772
X54.048 Y11.936
G3 X54.248 Y12.055 I-0.131 J0.449
X54.286 Y12.099 I-0.332 J0.33
G2 X56.763 Y14.556 I10.573 J-8.176
X56.888 Y14.63 I0.363 J-0.477
G1 X62.535 Y17.067
G2 X62.675 Y17.108 I0.238 J-0.551
X66.162 Y17.224 I2.184 J-13.185
G3 X66.445 Y17.287 I0.046 J0.466
G1 X66.663 Y17.428
X67.098 Y17.755
X67.315 Y17.919
X67.351 Y17.961 Z-5.993
X67.385 Y18 Z-5.974
X67.414 Y18.035 Z-5.943
X67.439 Y18.064 Z-5.902
X67.456 Y18.084 Z-5.853
X67.462 Y18.096 Z-5.81
X67.465 Y18.099 Z-5.764
G0 Z5
X81.242 Y44.685
Z-3.8
G1 Z-4.4 F349
X81.245 Y44.691 Z-4.494
X81.256 Y44.71 Z-4.585
X81.275 Y44.741 Z-4.672
X81.3 Y44.783 Z-4.753
X81.331 Y44.836 Z-4.824
X81.367 Y44.898 Z-4.885
X81.408 Y44.967 Z-4.935
X81.453 Y45.042 Z-4.971
X81.499 Y45.12 Z-4.993
X81.547 Y45.201 Z-5
G3 X82.469 Y48.37 I-5.724 J3.384
G1 Y48.587
X82.454 Y48.805
X82.422 Y49.239
X82.392 Y49.473
X81.7 Y54.877
X81.671 Y55.111
X81.626 Y55.327
X81.53 Y55.762
X81.479 Y55.98
X81.357 Y56.415
X81.281 Y56.637
X79.355 Y62.243
X79.278 Y62.466
X79.263 Y62.503
X79.157 Y62.72
G3 X78.945 Y62.918 I-0.41 J-0.228
G2 X76.832 Y64.135 I5.9 J12.686
X76.689 Y64.275 I0.344 J0.492
G1 X71.531 Y71.409
G2 X71.442 Y71.589 I0.486 J0.352
X70.948 Y73.977 I13.403 J4.015
G3 X70.824 Y74.244 I-0.466 J-0.055
G1 X70.795 Y74.273
X70.578 Y74.458
X70.39 Y74.6
X65.546 Y78.276
X65.358 Y78.418
X65.14 Y78.564
X64.923 Y78.698
X64.321 Y79.027
X64.114 Y79.14
X62.484 Y80.027
X62.277 Y80.14
X62.095 Y80.232
X61.66 Y80.443
X61.436 Y80.549
X61.008 Y80.73
X60.786 Y80.809
X55.574 Y82.675
X55.353 Y82.754
X54.918 Y82.877
X54.7 Y82.928
X54.265 Y83.017
X54.034 Y83.062
X51.886 Y83.488
X51.655 Y83.533
X51.22 Y83.603
X51.003 Y83.628
X49.915 Y83.737
G3 X49.683 Y83.706 I-0.039 J-0.599
G1 X49.594 Y83.676 Z-4.993
X49.507 Y83.647 Z-4.971
X49.425 Y83.619 Z-4.935
X49.349 Y83.593 Z-4.885
X49.281 Y83.57 Z-4.824
X49.223 Y83.55 Z-4.753
X49.177 Y83.534 Z-4.672
X49.143 Y83.523 Z-4.585
X49.122 Y83.516 Z-4.494
X49.115 Y83.513 Z-4.4
G0 Z5
X17.389 Y68.27
Z-3.8
G1 Z-4.4 F349
X17.383 Y68.267 Z-4.494
X17.364 Y68.257 Z-4.585
X17.332 Y68.24 Z-4.672
X17.288 Y68.217 Z-4.753
X17.234 Y68.188 Z-4.824
X17.171 Y68.154 Z-4.885
X17.1 Y68.116 Z-4.935
X17.023 Y68.076 Z-4.971
X16.943 Y68.033 Z-4.993
X16.86 Y67.989 Z-5
G3 X14.422 Y65.764 I3.123 J-5.87
G1 X14.292 Y65.547
X14.068 Y65.112
G3 X14.012 Y64.885 I0.543 J-0.255
G1 X14.007 Y64.791 Z-4.993
X14.003 Y64.699 Z-4.971
X13.999 Y64.613 Z-4.935
X13.995 Y64.532 Z-4.885
X13.992 Y64.461 Z-4.824
X13.989 Y64.4 Z-4.753
X13.987 Y64.351 Z-4.672
X13.985 Y64.315 Z-4.585
X13.984 Y64.293 Z-4.494
Y64.285 Z-4.4
G0 Z5
X11.92 Y38.12
Z-3.8
G1 Z-4.4 F349
X11.919 Y38.112 Z-4.494
X11.915 Y38.091 Z-4.585
X11.908 Y38.055 Z-4.672
X11.899 Y38.007 Z-4.753
X11.887 Y37.947 Z-4.824
X11.874 Y37.877 Z-4.885
X11.859 Y37.798 Z-4.935
X11.843 Y37.712 Z-4.971
X11.826 Y37.622 Z-4.993
X11.808 Y37.53 Z-5
G3 X12.016 Y34.237 I6.533 J-1.241
G1 X12.095 Y34.019
X12.29 Y33.584
X12.387 Y33.37
X13.278 Y31.395
X13.374 Y31.181
X13.469 Y30.975
X13.579 Y30.758
X13.954 Y30.106
G3 X14.111 Y29.951 I0.4 J0.25
G2 X14.122 Y29.944 I-30.687 J-51.072
X18.445 Y27.082 I-30.699 J-51.065
X18.497 Y27.04 I-0.353 J-0.485
G1 X28.173 Y18.213
G2 X28.22 Y18.165 I-0.404 J-0.443
X31.468 Y14.119 I-44.796 J-39.286
G1 X31.473 Y14.111
G3 X31.645 Y13.967 I0.38 J0.279
G1 X31.862 Y13.869
X32.024 Y13.798
X32.515 Y13.619
G3 X32.806 I0.146 J0.449
G2 X36.235 Y14.249 I4.108 J-12.704
X36.381 Y14.239 I0.031 J-0.599
G1 X42.442 Y13.05
G2 X42.581 Y13.005 I-0.115 J-0.589
X45.517 Y11.126 I-5.666 J-12.09
G3 X45.782 Y11.017 I0.304 J0.361
G1 X46 Y11.007
X46.218 Y11.017
X46.453 Y11.028
X49.286 Y11.17
X49.522 Y11.181
X49.617 Y11.189
X49.698 Y11.197
X50.568 Y11.326
G3 X50.779 Y11.425 I-0.086 J0.461
X50.822 Y11.465 I-0.297 J0.363
G2 X53.47 Y13.614 I9.487 J-8.98
X53.602 Y13.675 I0.314 J-0.511
G1 X59.342 Y15.495
G2 X59.485 Y15.522 I0.181 J-0.572
X62.888 Y15.291 I0.824 J-13.037
G3 X63.183 Y15.328 I0.093 J0.46
G1 X63.618 Y15.555
X63.835 Y15.682
X64.053 Y15.815
X64.246 Y15.949
X69.297 Y19.452
X69.49 Y19.586
X69.593 Y19.669
X69.708 Y19.775
X69.88 Y19.935
X71.756 Y21.683
X71.928 Y21.843
X72.147 Y22.061
X72.318 Y22.236
X72.74 Y22.713
X72.767 Y22.761 Z-4.993
X72.792 Y22.806 Z-4.974
X72.814 Y22.847 Z-4.943
X72.832 Y22.879 Z-4.902
X72.845 Y22.903 Z-4.853
X72.849 Y22.915 Z-4.81
X72.85 Y22.919 Z-4.764
G0 Z5
X62.673 Y16.36
Z-2.8
G1 Z-3.4 F349
X62.68 Z-3.494
X62.702 Y16.361 Z-3.585
X62.738 Y16.362 Z-3.672
X62.788 Y16.363 Z-3.753
X62.849 Y16.365 Z-3.824
X62.92 Y16.367 Z-3.885
X63 Y16.369 Z-3.935
X63.087 Y16.372 Z-3.971
X63.179 Y16.374 Z-3.993
X63.273 Y16.377 Z-4
G3 X66.445 Y17.285 I-0.187 J6.647
G1 X66.663 Y17.425
X66.755 Y17.495
G3 X66.904 Y17.675 I-0.378 J0.466
G1 X66.949 Y17.757 Z-3.993
X66.992 Y17.838 Z-3.971
X67.033 Y17.915 Z-3.935
X67.072 Y17.985 Z-3.885
X67.106 Y18.048 Z-3.824
X67.135 Y18.102 Z-3.753
X67.158 Y18.145 Z-3.672
X67.175 Y18.177 Z-3.585
X67.186 Y18.196 Z-3.494
X67.189 Y18.203 Z-3.4
G0 Z5
X80.762 Y41.138
Z-2.8
G1 Z-3.4 F349
X80.766 Y41.144 Z-3.494
X80.78 Y41.162 Z-3.585
X80.801 Y41.19 Z-3.672
X80.83 Y41.23 Z-3.753
X80.867 Y41.279 Z-3.824
X80.91 Y41.336 Z-3.885
X80.957 Y41.401 Z-3.935
X81.009 Y41.471 Z-3.971
X81.064 Y41.544 Z-3.993
X81.12 Y41.619 Z-4
G3 X82.37 Y44.673 I-5.336 J3.968
G1 X82.393 Y44.891
X82.402 Y45.108
X82.413 Y45.543
X82.405 Y45.779
X82.224 Y51.613
X82.216 Y51.849
X82.169 Y52.283
X82.092 Y52.718
G3 X81.947 Y52.97 I-0.46 J-0.098
G2 X79.667 Y56.167 I6.071 J6.742
X79.642 Y56.235 I0.552 J0.234
G1 X79.078 Y58.191
G2 X79.062 Y58.261 I0.576 J0.166
X79.288 Y62.182 I8.956 J1.451
G3 X79.278 Y62.469 I-0.452 J0.128
G1 X79.264 Y62.503
X79.158 Y62.72
X79.061 Y62.911
G3 X78.848 Y63.108 I-0.41 J-0.229
G2 X75.805 Y65.036 I5.8 J12.52
X75.704 Y65.144 I0.385 J0.461
G1 X71.914 Y70.361
G2 X71.842 Y70.49 I0.485 J0.353
X70.949 Y73.98 I12.806 J5.138
G3 X70.826 Y74.244 I-0.466 J-0.056
G1 X70.795 Y74.274
X70.578 Y74.459
G3 X70.377 Y74.55 I-0.292 J-0.372
G2 X70.365 Y74.553 I10.967 J56.031
X65.536 Y75.719 I10.979 J56.028
X65.467 Y75.744 I0.166 J0.577
G1 X52.866 Y81.102
G2 X52.801 Y81.134 I0.235 J0.552
X48.609 Y83.804 I28.543 J49.447
X48.6 Y83.81 I32.735 J46.777
G3 X48.393 Y83.891 I-0.271 J-0.387
G1 X48.175 Y83.911
X47.523 Y83.945
X47.305 Y83.948
X46
G3 X45.772 Y83.894 I0.021 J-0.6
G1 X45.687 Y83.855 Z-3.993
X45.603 Y83.817 Z-3.971
X45.524 Y83.781 Z-3.935
X45.451 Y83.748 Z-3.885
X45.386 Y83.718 Z-3.824
X45.33 Y83.693 Z-3.753
X45.286 Y83.673 Z-3.672
X45.253 Y83.658 Z-3.585
X45.233 Y83.649 Z-3.494
X45.226 Y83.646 Z-3.4
G0 Z5
X14.118 Y62.652
Z-2.8
G1 Z-3.4 F349
X14.112 Y62.647 Z-3.494
X14.095 Y62.634 Z-3.585
X14.066 Y62.612 Z-3.672
X14.027 Y62.582 Z-3.753
X13.979 Y62.544 Z-3.824
X13.923 Y62.5 Z-3.885
X13.859 Y62.451 Z-3.935
X13.791 Y62.397 Z-3.971
X13.718 Y62.341 Z-3.993
X13.644 Y62.284 Z-4
G3 X11.622 Y59.676 I4.079 J-5.252
G1 X11.541 Y59.459
X11.384 Y59.024
X11.316 Y58.806
X11.199 Y58.394
G3 X11.189 Y58.16 I0.583 J-0.142
G1 X11.204 Y58.067 Z-3.993
X11.218 Y57.976 Z-3.971
X11.231 Y57.89 Z-3.935
X11.243 Y57.811 Z-3.885
X11.254 Y57.74 Z-3.824
X11.264 Y57.68 Z-3.753
X11.271 Y57.631 Z-3.672
X11.277 Y57.596 Z-3.585
X11.28 Y57.574 Z-3.494
X11.281 Y57.567 Z-3.4
G0 Z5
X42.165 Y12.43
Z-2.8
G1 Z-3.4 F349
X42.171 Y12.425 Z-3.494
X42.189 Y12.413 Z-3.585
X42.219 Y12.393 Z-3.672
X42.26 Y12.366 Z-3.753
X42.311 Y12.332 Z-3.824
X42.371 Y12.293 Z-3.885
X42.438 Y12.249 Z-3.935
X42.51 Y12.201 Z-3.971
X42.587 Y12.15 Z-3.993
X42.665 Y12.098 Z-4
G3 X45.782 Y11.016 I3.671 J5.544
G1 X46 Y11.006
X46.218 Y11.016
X46.452 Y11.04
X52.943 Y11.707
X53.178 Y11.731
X53.395 Y11.77
X53.613 Y11.825
X53.841 Y11.883
X56.212 Y12.489
X56.44 Y12.547
X56.658 Y12.606
X56.875 Y12.669
X57.528 Y12.906
X57.574 Y12.936 Z-3.993
X57.618 Y12.963 Z-3.974
X57.657 Y12.988 Z-3.943
X57.688 Y13.008 Z-3.902
X57.711 Y13.022 Z-3.853
X57.72 Y13.031 Z-3.81
X57.723 Y13.035 Z-3.764
G0 Z5
X79.489 Y58.592
Z-1.8
G1 Z-2.4 F349
X79.49 Y58.6 Z-2.494
X79.494 Y58.621 Z-2.585
X79.499 Y58.657 Z-2.672
X79.507 Y58.706 Z-2.753
X79.517 Y58.766 Z-2.824
X79.528 Y58.837 Z-2.885
X79.541 Y58.916 Z-2.935
X79.554 Y59.002 Z-2.971
X79.569 Y59.092 Z-2.993
X79.584 Y59.185 Z-3
G3 X79.278 Y62.471 I-6.567 J1.047
G1 X79.265 Y62.503
X79.158 Y62.72
G3 X78.998 Y62.889 I-0.408 J-0.228
X78.947 Y62.917 I-0.247 J-0.396
G2 X75.798 Y65.32 I3.846 J8.303
X75.753 Y65.382 I0.459 J0.387
G1 X74.573 Y67.209
G2 X74.536 Y67.276 I0.504 J0.325
X73.643 Y71.135 I8.257 J3.943
G3 X73.637 Y71.203 I-0.467 J-0.004
X73.545 Y71.417 I-0.462 J-0.073
G1 X73.362 Y71.635
X73.188 Y71.829
X72.753 Y72.275
X72.588 Y72.443
X70.992 Y74.075
X70.827 Y74.244
X70.795 Y74.275
X70.578 Y74.459
G3 X70.369 Y74.565 I-0.369 J-0.473
G1 X70.278 Y74.59 Z-2.993
X70.19 Y74.614 Z-2.971
X70.106 Y74.637 Z-2.935
X70.029 Y74.659 Z-2.885
X69.96 Y74.678 Z-2.824
X69.901 Y74.694 Z-2.753
X69.854 Y74.707 Z-2.672
X69.819 Y74.717 Z-2.585
X69.798 Y74.723 Z-2.494
X69.791 Y74.725 Z-2.4
G0 Z5
X42.167 Y12.434
Z-1.8
G1 Z-2.4 F349
X42.173 Y12.43 Z-2.494
X42.191 Y12.418 Z-2.585
X42.221 Y12.398 Z-2.672
X42.262 Y12.37 Z-2.753
X42.313 Y12.337 Z-2.824
X42.373 Y12.297 Z-2.885
X42.44 Y12.253 Z-2.935
X42.512 Y12.204 Z-2.971
X42.588 Y12.154 Z-2.993
X42.667 Y12.102 Z-3
G3 X45.782 Y11.015 I3.679 J5.539
G1 X46 Y11.005
X46.218 Y11.015
X46.271 Y11.03 Z-2.993
X46.321 Y11.043 Z-2.974
X46.365 Y11.055 Z-2.943
X46.401 Y11.065 Z-2.902
X46.427 Y11.072 Z-2.853
X46.438 Y11.078 Z-2.81
X46.442 Y11.08 Z-2.764
G0 Z5
X60.684 Y18.433
Z0.2
G1 Z-0.4 F349
X60.686 Y18.426 Z-0.494
X60.69 Y18.404 Z-0.585
X60.697 Y18.369 Z-0.672
X60.707 Y18.321 Z-0.753
X60.719 Y18.261 Z-0.824
X60.733 Y18.191 Z-0.885
X60.749 Y18.112 Z-0.935
X60.766 Y18.027 Z-0.971
X60.784 Y17.937 Z-0.993
X60.803 Y17.845 Z-1
G3 X61.797 Y14.698 I15.018 J3.014
G1 X61.84 Y14.607
X61.97 Y14.523
X62.118 Y14.48
X62.273 Y14.481
X62.421 Y14.527
X62.965 Y14.789
X63.183 Y14.895
X63.618 Y15.11
X63.835 Y15.234
X66.467 Y16.842
X66.663 Y16.963
X66.813 Y17.06
X69.49 Y19.087
X69.708 Y19.254
X69.925 Y19.454
X72.031 Y21.408
X72.1 Y21.474
X72.535 Y21.905
X74.71 Y24.369
X74.778 Y24.452
X75.262 Y25.105
X75.888 Y25.974
X76.885 Y27.363
X76.977 Y27.496
X77.358 Y28.149
X78.488 Y30.106
X78.609 Y30.323
X78.95 Y30.975
X79.061 Y31.216
X80.227 Y33.802
X80.316 Y34.019
X80.545 Y34.672
X81.349 Y37.063
X81.453 Y37.389
X81.488 Y37.498
X81.546 Y37.716
X82.142 Y40.325
X82.191 Y40.542
X82.324 Y41.195
X82.357 Y41.412
X82.684 Y44.021
X82.71 Y44.239
X82.775 Y44.891
X82.784 Y45.108
X82.849 Y47.717
X82.853 Y47.935
Y48.587
X82.838 Y48.805
X82.642 Y51.414
X82.623 Y51.631
X82.58 Y52.066
X82.557 Y52.283
X82.059 Y55.11
X82.016 Y55.327
X81.888 Y55.937
X81.754 Y56.415
X81.081 Y58.806
X81.011 Y59.024
X80.865 Y59.459
X80.801 Y59.646
X79.679 Y62.503
X79.576 Y62.72
X79.362 Y63.155
X79.278 Y63.324
X78.191 Y65.445
X78.134 Y65.547
X77.768 Y66.199
X77.756 Y66.22
X76.225 Y68.591
X75.93 Y69.026
X75.798 Y69.209
X74.037 Y71.417
X73.84 Y71.651
X73.485 Y72.07
X73.405 Y72.153
X71.366 Y74.244
X71.151 Y74.461
X71.013 Y74.593
X68.837 Y76.418
X68.569 Y76.636
X68.185 Y76.943
X68.012 Y77.071
X65.78 Y78.593
X65.575 Y78.73
X65.358 Y78.874
X65.14 Y79.016
X62.313 Y80.556
X62.095 Y80.665
X61.66 Y80.868
X61.388 Y80.984
X59.268 Y81.878
X58.615 Y82.145
X58.398 Y82.22
X55.788 Y83.026
X55.57 Y83.092
X54.918 Y83.269
X54.7 Y83.319
X52.09 Y83.846
X51.873 Y83.889
X51.22 Y83.99
X51.003 Y84.016
X48.393 Y84.277
X48.175 Y84.296
X47.523 Y84.329
X47.305 Y84.332
X44.695
X44.477 Y84.329
X43.825 Y84.296
X43.607 Y84.277
X40.997 Y84.016
X40.78 Y83.99
X40.127 Y83.889
X39.91 Y83.846
X37.3 Y83.319
X37.082 Y83.269
X36.43 Y83.092
X35.939 Y82.941
X33.602 Y82.22
X33.385 Y82.145
X32.675 Y81.854
X30.557 Y80.961
X30.34 Y80.868
X29.905 Y80.665
X29.675 Y80.549
X26.86 Y79.016
X26.642 Y78.874
X26.425 Y78.73
X26.207 Y78.584
X23.988 Y77.071
X23.815 Y76.943
X23.38 Y76.594
X23.162 Y76.418
X20.987 Y74.593
X20.849 Y74.461
X20.634 Y74.244
X18.595 Y72.153
X18.515 Y72.07
X18.146 Y71.635
X17.963 Y71.417
X16.202 Y69.209
X16.07 Y69.026
X15.767 Y68.578
X14.244 Y66.22
X14.232 Y66.199
X13.866 Y65.547
X13.809 Y65.445
X12.722 Y63.324
X12.504 Y62.883
X12.424 Y62.72
X12.321 Y62.503
X11.199 Y59.646
X11.135 Y59.459
X10.982 Y59.003
X10.919 Y58.806
X10.124 Y55.98
X10.112 Y55.937
X9.984 Y55.327
X9.941 Y55.11
X9.443 Y52.283
X9.399 Y51.849
X9.377 Y51.631
X9.358 Y51.414
X9.162 Y48.805
X9.147 Y48.587
Y47.935
X9.151 Y47.717
X9.216 Y45.108
X9.225 Y44.891
X9.29 Y44.239
X9.316 Y44.021
X9.643 Y41.412
X9.677 Y41.189
X9.809 Y40.542
X10.206 Y38.803
X10.454 Y37.716
X10.512 Y37.498
X10.581 Y37.281
X10.651 Y37.063
X11.455 Y34.672
X11.684 Y34.019
X11.773 Y33.802
X12.95 Y31.193
X13.05 Y30.975
X13.391 Y30.323
X13.512 Y30.106
X14.679 Y28.084
X15.023 Y27.496
X15.115 Y27.363
X16.637 Y25.245
X16.738 Y25.105
X17.222 Y24.452
X17.29 Y24.369
X19.465 Y21.905
X19.9 Y21.474
X19.969 Y21.408
X22.078 Y19.452
X22.292 Y19.254
X22.603 Y19.017
X25.187 Y17.06
X25.337 Y16.963
X25.555 Y16.829
X28.165 Y15.234
X28.382 Y15.11
X28.837 Y14.885
X29.287 Y14.668
X31.21 Y13.742
X31.427 Y13.646
X31.862 Y13.459
X32.08 Y13.37
X34.907 Y12.341
X35.128 Y12.276
X35.56 Y12.155
X35.777 Y12.095
X38.605 Y11.375
X38.822 Y11.339
X39.257 Y11.269
X39.475 Y11.235
X42.302 Y10.809
X42.52 Y10.797
X43.825 Y10.73
X45.782 Y10.633
X46 Y10.623
X46.653 Y10.654
X49.263 Y10.785
X49.48 Y10.797
X49.698 Y10.809
X52.525 Y11.235
X52.96 Y11.304
X53.178 Y11.339
X53.395 Y11.375
X56.223 Y12.095
X56.44 Y12.155
X56.875 Y12.277
X57.093 Y12.341
X59.92 Y13.37
X60.138 Y13.459
X60.573 Y13.646
X60.79 Y13.742
X62.421 Y14.527
X62.464 Y14.561 Z-0.993
X62.505 Y14.593 Z-0.974
X62.541 Y14.621 Z-0.943
X62.57 Y14.644 Z-0.902
X62.591 Y14.661 Z-0.853
X62.6 Y14.671 Z-0.81
X62.603 Y14.674 Z-0.764
G0 Z5
X47.89 Y44.252
Z-6.9
G1 Z-7.5 F349
G3 X44.109 Y43.876 Z-7.708 I-1.891 J-0.188
X47.89 Y44.252 Z-7.917 I1.891 J0.188
X44.109 Y43.876 Z-8.125 I-1.891 J-0.188
X47.89 Y44.252 Z-8.334 I1.891 J0.188
X44.109 Y43.876 Z-8.542 I-1.891 J-0.188
X47.89 Y44.252 Z-8.751 I1.891 J0.188
X44.109 Y43.876 Z-8.959 I-1.891 J-0.188
X47.89 Y44.252 Z-9.168 I1.891 J0.188
X44.109 Y43.876 Z-9.376 I-1.891 J-0.188
X47.89 Y44.252 Z-9.584 I1.891 J0.188
X44.109 Y43.876 Z-9.793 I-1.891 J-0.188
X47.89 Y44.252 Z-10.001 I1.891 J0.188
X44.109 Y43.876 Z-10.21 I-1.891 J-0.188
X47.89 Y44.252 Z-10.418 I1.891 J0.188
X44.109 Y43.876 Z-10.627 I-1.891 J-0.188
X47.89 Y44.252 Z-10.835 I1.891 J0.188
X44.109 Y43.876 Z-11.044 I-1.891 J-0.188
X47.89 Y44.252 Z-11.252 I1.891 J0.188
X44.109 Y43.876 Z-11.46 I-1.891 J-0.188
X47.89 Y44.252 Z-11.669 I1.891 J0.188
X44.109 Y43.876 Z-11.877 I-1.891 J-0.188
X47.89 Y44.252 Z-12.086 I1.891 J0.188
X44.109 Y43.876 Z-12.294 I-1.891 J-0.188
X47.89 Y44.252 Z-12.503 I1.891 J0.188
X44.109 Y43.876 Z-12.711 I-1.891 J-0.188
X47.89 Y44.252 Z-12.92 I1.891 J0.188
X44.109 Y43.876 Z-13.128 I-1.891 J-0.188
X47.89 Y44.252 Z-13.336 I1.891 J0.188
X44.109 Y43.876 Z-13.545 I-1.891 J-0.188
X47.89 Y44.252 Z-13.753 I1.891 J0.188
X44.109 Y43.876 Z-13.962 I-1.891 J-0.188
X47.89 Y44.252 Z-14.17 I1.891 J0.188
X44.109 Y43.876 Z-14.379 I-1.891 J-0.188
X47.89 Y44.252 Z-14.587 I1.891 J0.188
X44.109 Y43.876 Z-14.796 I-1.891 J-0.188
X47.89 Y44.252 Z-15.004 I1.891 J0.188
X44.109 Y43.876 Z-15.212 I-1.891 J-0.188
X47.89 Y44.252 Z-15.421 I1.891 J0.188
X44.109 Y43.876 Z-15.629 I-1.891 J-0.188
X47.89 Y44.252 Z-15.838 I1.891 J0.188
X44.109 Y43.876 Z-16.046 I-1.891 J-0.188
X47.89 Y44.252 Z-16.255 I1.891 J0.188
X44.109 Y43.876 Z-16.463 I-1.891 J-0.188
X47.89 Y44.252 Z-16.671 I1.891 J0.188
X44.109 Y43.876 Z-16.88 I-1.891 J-0.188
X47.89 Y44.252 Z-17.088 I1.891 J0.188
X44.109 Y43.876 Z-17.297 I-1.891 J-0.188
X47.89 Y44.252 Z-17.505 I1.891 J0.188
X44.109 Y43.876 Z-17.714 I-1.891 J-0.188
X47.89 Y44.252 Z-17.922 I1.891 J0.188
X44.109 Y43.876 Z-18.131 I-1.891 J-0.188
X47.89 Y44.252 Z-18.339 I1.891 J0.188
X44.109 Y43.876 Z-18.547 I-1.891 J-0.188
X47.89 Y44.252 Z-18.756 I1.891 J0.188
X44.109 Y43.876 Z-18.964 I-1.891 J-0.188
X47.89 Y44.252 Z-19.173 I1.891 J0.188
X44.109 Y43.876 Z-19.381 I-1.891 J-0.188
X47.89 Y44.252 Z-19.59 I1.891 J0.188
X44.109 Y43.876 Z-19.798 I-1.891 J-0.188
X47.9 Y44.064 Z-20 I1.891 J0.188
X44.1 I-1.9
X47.9 I1.9
G1 X47.92 Y45.022
X47.953 Y45.137
X47.974 Y45.285
X47.976 Y45.435
X47.958 Y45.584
X47.925 Y45.73
X47.878 Y45.873
X47.817 Y46.01
X47.745 Y46.141
X47.66 Y46.27
X47.561 Y46.397
X47.447 Y46.52
X47.319 Y46.638
X47.177 Y46.75
X47.021 Y46.853
X46.852 Y46.946
X46.671 Y47.028
X46.479 Y47.097
X46.277 Y47.151
X46.066 Y47.19
X45.849 Y47.213
X45.625 Y47.218
X45.398 Y47.204
X45.169 Y47.172
X44.94 Y47.122
X44.712 Y47.051
X44.488 Y46.962
X44.269 Y46.854
X44.057 Y46.726
X43.854 Y46.581
X43.661 Y46.419
X43.481 Y46.24
X43.314 Y46.046
X43.163 Y45.838
X43.028 Y45.617
X42.91 Y45.384
X42.811 Y45.141
X42.731 Y44.89
X42.671 Y44.633
X42.632 Y44.37
X42.615 Y44.105
X42.618 Y43.837
X42.643 Y43.571
X42.69 Y43.306
X42.758 Y43.046
X42.847 Y42.791
X42.956 Y42.544
X43.084 Y42.305
X43.232 Y42.078
X43.398 Y41.863
X43.581 Y41.661
X43.779 Y41.475
X43.992 Y41.305
X44.218 Y41.153
X44.456 Y41.019
X44.704 Y40.905
X44.96 Y40.81
X45.224 Y40.737
X45.492 Y40.685
X45.764 Y40.655
X46.038 Y40.646
X46.312 Y40.66
X46.584 Y40.695
X46.852 Y40.753
X47.114 Y40.831
X47.37 Y40.931
X47.617 Y41.05
X47.853 Y41.19
X48.078 Y41.347
X48.289 Y41.523
X48.486 Y41.714
X48.666 Y41.921
X48.843 Y42.16
X49.06 Y42.509
X49.287 Y42.949
X49.452 Y43.343
X49.573 Y43.712
X49.658 Y44.065
X49.711 Y44.406
X49.736 Y44.738
X49.734 Y45.063
X49.707 Y45.381
X49.655 Y45.692
X49.578 Y45.996
X49.478 Y46.293
X49.353 Y46.581
X49.206 Y46.859
X49.036 Y47.125
X48.844 Y47.379
X48.63 Y47.619
X48.396 Y47.842
X48.143 Y48.048
X47.871 Y48.234
X47.582 Y48.4
X47.277 Y48.544
X46.958 Y48.664
X46.627 Y48.759
X46.286 Y48.828
X45.936 Y48.87
X45.579 Y48.884
X45.219 Y48.869
X44.857 Y48.824
X44.497 Y48.751
X44.14 Y48.647
X43.79 Y48.514
X43.449 Y48.352
X43.119 Y48.162
X42.803 Y47.944
X42.504 Y47.7
X42.224 Y47.431
X41.964 Y47.139
X41.728 Y46.825
X41.516 Y46.491
X41.331 Y46.14
X41.174 Y45.773
X41.047 Y45.394
X40.95 Y45.004
X40.884 Y44.605
X40.85 Y44.202
X40.849 Y43.796
X40.881 Y43.39
X40.945 Y42.986
X41.042 Y42.589
X41.17 Y42.199
X41.33 Y41.82
X41.52 Y41.455
X41.739 Y41.105
X41.985 Y40.774
X42.258 Y40.463
X42.556 Y40.174
X42.875 Y39.911
X43.216 Y39.673
X43.574 Y39.463
X43.949 Y39.283
X44.337 Y39.133
X44.736 Y39.015
X45.144 Y38.929
X45.558 Y38.876
X45.974 Y38.856
X46.391 Y38.87
X46.806 Y38.917
X47.216 Y38.998
X47.618 Y39.111
X48.01 Y39.256
X48.389 Y39.432
X48.756 Y39.64
X49.124 Y39.889
X49.496 Y40.188
X49.852 Y40.524
X50.186 Y40.894
X50.493 Y41.294
X50.767 Y41.719
X51.005 Y42.161
X51.205 Y42.618
X51.366 Y43.085
X51.458 Y43.442
X51.551 Y43.918
X51.605 Y44.397
X51.62 Y44.874
X51.597 Y45.349
X51.536 Y45.819
X51.438 Y46.28
X51.303 Y46.732
X51.133 Y47.172
X50.927 Y47.597
X50.688 Y48.005
X50.416 Y48.394
X50.113 Y48.761
X49.779 Y49.103
X49.418 Y49.42
X49.03 Y49.708
X48.618 Y49.965
X48.184 Y50.19
X47.73 Y50.381
X47.258 Y50.535
X46.772 Y50.653
X46.275 Y50.731
X45.769 Y50.77
X45.258 Y50.768
X44.745 Y50.724
X44.233 Y50.639
X43.727 Y50.512
X43.229 Y50.344
X42.744 Y50.136
X42.274 Y49.887
X41.823 Y49.6
X41.394 Y49.276
X40.99 Y48.917
X40.615 Y48.525
X40.271 Y48.102
X39.961 Y47.651
X39.687 Y47.175
X39.451 Y46.676
X39.255 Y46.158
X39.101 Y45.624
X38.99 Y45.078
X38.923 Y44.523
X38.9 Y43.963
X38.923 Y43.402
X38.99 Y42.843
X39.103 Y42.29
X39.26 Y41.747
X39.46 Y41.217
X39.703 Y40.705
X39.986 Y40.212
X40.309 Y39.744
X40.668 Y39.302
X41.063 Y38.89
X41.489 Y38.51
X41.945 Y38.166
X42.428 Y37.859
X42.934 Y37.591
X43.46 Y37.365
X44.003 Y37.182
X44.56 Y37.043
X45.126 Y36.949
X45.698 Y36.9
X46.272 Y36.898
X46.845 Y36.942
X47.414 Y37.032
X47.977 Y37.168
X48.536 Y37.351
X49.087 Y37.583
X49.625 Y37.862
X50.148 Y38.188
X50.651 Y38.561
X51.129 Y38.98
X51.577 Y39.44
X51.989 Y39.938
X52.36 Y40.469
X52.689 Y41.03
X52.972 Y41.615
X53.206 Y42.219
X53.39 Y42.838
X53.524 Y43.468
X53.606 Y44.104
X53.637 Y44.744
X53.617 Y45.382
X53.545 Y46.015
X53.423 Y46.64
X53.252 Y47.253
X53.031 Y47.85
X52.764 Y48.428
X52.45 Y48.984
X52.092 Y49.513
X51.809 Y49.868
X51.381 Y50.344
X50.915 Y50.787
X50.413 Y51.192
X49.877 Y51.557
X49.312 Y51.879
X48.719 Y52.157
X48.103 Y52.387
X47.466 Y52.568
X46.814 Y52.698
X46.15 Y52.776
X45.478 Y52.8
X44.803 Y52.77
X44.128 Y52.686
X43.459 Y52.547
X42.8 Y52.353
X42.156 Y52.107
X41.531 Y51.808
X40.929 Y51.458
X40.354 Y51.059
X39.811 Y50.614
X39.304 Y50.125
X38.836 Y49.594
X38.41 Y49.026
X38.03 Y48.423
X37.699 Y47.79
X37.418 Y47.13
X37.191 Y46.448
X37.019 Y45.748
X36.904 Y45.035
X36.845 Y44.313
Y43.587
X36.904 Y42.862
X37.02 Y42.143
X37.194 Y41.434
X37.425 Y40.741
X37.711 Y40.067
X38.051 Y39.417
X38.443 Y38.796
X38.883 Y38.208
X39.37 Y37.657
X39.9 Y37.145
X40.469 Y36.678
X41.075 Y36.257
X41.714 Y35.886
X42.38 Y35.568
X43.07 Y35.303
X43.78 Y35.095
X44.504 Y34.945
X45.239 Y34.853
X45.98 Y34.82
X46.724 Y34.847
X47.468 Y34.933
X48.208 Y35.081
X48.94 Y35.289
X49.659 Y35.557
X50.36 Y35.886
X51.04 Y36.273
X51.692 Y36.718
X52.311 Y37.217
X52.892 Y37.768
X53.43 Y38.368
X53.92 Y39.012
X54.359 Y39.694
X54.741 Y40.411
X55.065 Y41.156
X55.328 Y41.925
X55.528 Y42.711
X55.665 Y43.51
X55.736 Y44.316
X55.74 Y44.795
X55.709 Y45.6
X55.614 Y46.4
X55.454 Y47.189
X55.232 Y47.964
X54.948 Y48.719
X54.607 Y49.442
X54.204 Y50.145
X53.745 Y50.814
X53.234 Y51.445
X52.672 Y52.034
X52.064 Y52.577
X51.412 Y53.071
X50.72 Y53.512
X49.993 Y53.898
X49.234 Y54.226
X48.448 Y54.493
X47.64 Y54.696
X46.814 Y54.835
X45.977 Y54.907
X45.133 Y54.912
X44.287 Y54.849
X43.446 Y54.717
X42.615 Y54.518
X41.799 Y54.252
X41.005 Y53.919
X40.236 Y53.523
X39.499 Y53.064
X38.799 Y52.546
X38.141 Y51.972
X37.529 Y51.344
X36.967 Y50.668
X36.46 Y49.946
X36.012 Y49.184
X35.625 Y48.387
X35.302 Y47.559
X35.047 Y46.706
X34.86 Y45.833
X34.744 Y44.946
X34.699 Y44.051
X34.726 Y43.154
X34.826 Y42.26
X34.997 Y41.376
X35.238 Y40.507
X35.55 Y39.659
X35.928 Y38.838
X36.372 Y38.049
X36.878 Y37.298
X37.443 Y36.589
X38.065 Y35.927
X38.737 Y35.316
X39.457 Y34.761
X40.22 Y34.265
X41.021 Y33.832
X41.854 Y33.464
X42.715 Y33.164
X43.598 Y32.934
X44.497 Y32.775
X45.409 Y32.689
X45.888 Y32.682
X46.787 Y32.703
X47.692 Y32.796
X48.595 Y32.963
X49.492 Y33.205
X50.374 Y33.52
X51.235 Y33.909
X52.069 Y34.369
X52.867 Y34.898
X53.621 Y35.489
X54.325 Y36.138
X54.976 Y36.84
X55.57 Y37.592
X56.103 Y38.388
X56.572 Y39.223
X56.974 Y40.092
X57.307 Y40.99
X57.569 Y41.911
X57.759 Y42.85
X57.874 Y43.8
X57.915 Y44.757
X57.88 Y45.714
X57.771 Y46.666
X57.587 Y47.606
X57.331 Y48.528
X57.003 Y49.428
X56.605 Y50.299
X56.141 Y51.137
X55.612 Y51.936
X55.023 Y52.691
X54.377 Y53.398
X53.678 Y54.052
X52.931 Y54.651
X52.139 Y55.19
X51.308 Y55.666
X50.443 Y56.077
X49.549 Y56.421
X48.632 Y56.695
X47.696 Y56.899
X46.748 Y57.032
X45.792 Y57.093
X44.834 Y57.081
X43.88 Y56.996
X42.935 Y56.84
X42.005 Y56.613
X41.094 Y56.316
X40.208 Y55.953
X39.351 Y55.525
X38.528 Y55.035
X37.743 Y54.487
X37.001 Y53.882
X36.303 Y53.225
X35.656 Y52.52
X35.061 Y51.769
X34.524 Y50.977
X34.046 Y50.146
X33.631 Y49.284
X33.279 Y48.393
X32.992 Y47.479
X32.771 Y46.547
X32.618 Y45.602
X32.531 Y44.648
X32.513 Y43.691
X32.563 Y42.734
X32.683 Y41.784
X32.872 Y40.845
X33.128 Y39.922
X33.449 Y39.02
X33.833 Y38.142
X34.277 Y37.294
X34.78 Y36.479
X35.339 Y35.702
X35.952 Y34.966
X36.617 Y34.277
X37.33 Y33.637
X38.087 Y33.05
X38.883 Y32.517
X39.714 Y32.042
X40.576 Y31.626
X41.466 Y31.271
X42.378 Y30.979
X43.309 Y30.754
X44.254 Y30.599
X45.207 Y30.508
X46.165 Y30.482
X47.122 Y30.523
X48.073 Y30.633
X49.014 Y30.809
X49.941 Y31.05
X50.85 Y31.353
X51.735 Y31.717
X52.595 Y32.14
X53.422 Y32.622
X54.215 Y33.16
X54.968 Y33.751
X55.681 Y34.39
X56.35 Y35.076
X56.973 Y35.803
X57.546 Y36.571
X58.065 Y37.375
X58.528 Y38.214
X58.936 Y39.08
X59.285 Y39.972
X59.576 Y40.885
X59.807 Y41.814
X59.974 Y42.757
X60.077 Y43.709
X60.116 Y44.666
X60.091 Y45.623
X60.005 Y46.577
X59.857 Y47.523
X59.646 Y48.458
X59.372 Y49.375
X59.037 Y50.272
X58.643 Y51.145
X58.192 Y51.99
X57.688 Y52.805
X57.132 Y53.585
X56.525 Y54.325
X55.869 Y55.023
X55.168 Y55.676
X54.427 Y56.281
X53.647 Y56.838
X52.833 Y57.343
X51.989 Y57.794
X51.116 Y58.188
X50.219 Y58.523
X49.302 Y58.799
X48.369 Y59.016
X47.424 Y59.173
X46.471 Y59.27
X45.514 Y59.306
X44.557 Y59.277
X43.604 Y59.186
X42.658 Y59.034
X41.724 Y58.823
X40.805 Y58.553
X39.905 Y58.226
X39.027 Y57.843
X38.176 Y57.403
X37.355 Y56.91
X36.567 Y56.367
X35.813 Y55.776
X35.097 Y55.14
X34.421 Y54.462
X33.79 Y53.742
X33.206 Y52.982
X32.672 Y52.187
X32.188 Y51.361
X31.757 Y50.506
X31.378 Y49.626
X31.053 Y48.725
X30.785 Y47.806
X30.576 Y46.871
X30.425 Y45.926
X30.332 Y44.972
X30.297 Y44.015
X30.32 Y43.058
X30.401 Y42.104
X30.542 Y41.157
X30.743 Y40.22
X31.001 Y39.298
X31.316 Y38.393
X31.683 Y37.509
X32.103 Y36.648
X32.574 Y35.814
X33.094 Y35.01
X33.665 Y34.241
X34.282 Y33.509
X34.943 Y32.816
X35.645 Y32.164
X36.384 Y31.555
X37.159 Y30.992
X37.966 Y30.477
X38.804 Y30.012
X39.668 Y29.6
X40.556 Y29.242
X41.464 Y28.938
X42.389 Y28.689
X43.327 Y28.496
X44.275 Y28.359
X45.23 Y28.281
X46.187 Y28.262
X47.144 Y28.301
X48.097 Y28.397
X49.042 Y28.55
X49.977 Y28.757
X50.899 Y29.018
X51.802 Y29.335
X52.685 Y29.706
X53.545 Y30.129
X54.377 Y30.602
X55.181 Y31.123
X55.954 Y31.689
X56.693 Y32.298
X57.395 Y32.949
X58.057 Y33.641
X58.678 Y34.37
X59.255 Y35.134
X59.787 Y35.93
X60.274 Y36.756
X60.712 Y37.607
X61.102 Y38.482
X61.44 Y39.378
X61.725 Y40.292
X61.956 Y41.221
X62.134 Y42.163
X62.257 Y43.112
X62.327 Y44.067
X62.343 Y45.025
X62.303 Y45.982
X62.208 Y46.935
X62.057 Y47.88
X61.851 Y48.816
X61.593 Y49.738
X61.282 Y50.644
X60.921 Y51.531
X60.51 Y52.396
X60.049 Y53.235
X59.54 Y54.047
X58.985 Y54.827
X58.386 Y55.575
X57.746 Y56.287
X57.067 Y56.962
X56.351 Y57.598
X55.599 Y58.192
X54.815 Y58.741
X54 Y59.244
X53.158 Y59.701
X52.291 Y60.108
X51.403 Y60.467
X50.497 Y60.776
X49.575 Y61.034
X48.639 Y61.239
X47.693 Y61.39
X46.741 Y61.488
X45.784 Y61.532
X44.826 Y61.522
X43.871 Y61.459
X42.92 Y61.344
X41.977 Y61.176
X41.045 Y60.955
X40.127 Y60.682
X39.226 Y60.359
X38.344 Y59.986
X37.483 Y59.565
X36.647 Y59.098
X35.837 Y58.587
X35.057 Y58.032
X34.308 Y57.435
X33.593 Y56.798
X32.915 Y56.122
X32.274 Y55.41
X31.673 Y54.664
X31.114 Y53.887
X30.596 Y53.081
X30.124 Y52.248
X29.699 Y51.39
X29.32 Y50.51
X28.991 Y49.611
X28.709 Y48.695
X28.478 Y47.766
X28.296 Y46.826
X28.164 Y45.877
X28.084 Y44.923
X28.056 Y43.966
X28.081 Y43.008
X28.157 Y42.054
X28.284 Y41.104
X28.462 Y40.163
X28.689 Y39.233
X28.965 Y38.316
X29.291 Y37.415
X29.664 Y36.534
X30.084 Y35.673
X30.55 Y34.836
X31.06 Y34.025
X31.612 Y33.243
X32.205 Y32.491
X32.837 Y31.771
X33.507 Y31.087
X34.212 Y30.439
X34.952 Y29.831
X35.723 Y29.262
X36.523 Y28.736
X37.349 Y28.252
X38.2 Y27.812
X39.073 Y27.418
X39.966 Y27.072
X40.876 Y26.774
X41.801 Y26.526
X42.737 Y26.326
X43.683 Y26.176
X44.636 Y26.077
X45.592 Y26.027
X46.55 Y26.028
X47.506 Y26.08
X48.459 Y26.182
X49.404 Y26.335
X50.34 Y26.536
X51.265 Y26.787
X52.175 Y27.084
X53.069 Y27.429
X53.943 Y27.818
X54.797 Y28.254
X55.626 Y28.733
X56.429 Y29.255
X57.204 Y29.817
X57.949 Y30.418
X58.663 Y31.056
X59.344 Y31.73
X59.99 Y32.437
X60.599 Y33.177
X61.168 Y33.947
X61.697 Y34.745
X62.186 Y35.569
X62.632 Y36.416
X63.034 Y37.285
X63.393 Y38.173
X63.706 Y39.078
X63.974 Y39.998
X64.193 Y40.93
X64.365 Y41.872
X64.488 Y42.822
X64.563 Y43.777
X64.59 Y44.734
X64.569 Y45.691
X64.5 Y46.647
X64.383 Y47.597
X64.218 Y48.541
X64.004 Y49.474
X63.743 Y50.395
X63.435 Y51.302
X63.083 Y52.193
X62.686 Y53.064
X62.245 Y53.915
X61.763 Y54.742
X61.24 Y55.544
X60.676 Y56.318
X60.073 Y57.063
X59.433 Y57.775
X58.759 Y58.455
X58.051 Y59.1
X57.312 Y59.71
X56.544 Y60.281
X55.748 Y60.814
X54.926 Y61.306
X54.081 Y61.755
X53.213 Y62.161
X52.327 Y62.524
X51.423 Y62.842
X50.506 Y63.115
X49.575 Y63.342
X48.635 Y63.524
X47.687 Y63.659
X46.733 Y63.745
X45.776 Y63.784
X44.818 Y63.774
X43.862 Y63.718
X42.91 Y63.615
X41.964 Y63.465
X41.027 Y63.27
X40.1 Y63.029
X39.186 Y62.743
X38.288 Y62.411
X37.407 Y62.035
X36.545 Y61.617
X35.705 Y61.157
X34.888 Y60.658
X34.095 Y60.12
X33.33 Y59.544
X32.593 Y58.933
X31.887 Y58.286
X31.214 Y57.604
X30.575 Y56.891
X29.971 Y56.148
X29.403 Y55.376
X28.873 Y54.579
X28.382 Y53.756
X27.931 Y52.912
X27.521 Y52.046
X27.153 Y51.162
X26.829 Y50.261
X26.549 Y49.345
X26.312 Y48.417
X26.12 Y47.479
X25.973 Y46.533
X25.871 Y45.58
X25.814 Y44.624
X25.802 Y43.667
X25.837 Y42.71
X25.919 Y41.755
X26.047 Y40.806
X26.219 Y39.864
X26.436 Y38.931
X26.696 Y38.01
X27 Y37.101
X27.346 Y36.208
X27.733 Y35.333
X28.163 Y34.477
X28.633 Y33.642
X29.143 Y32.832
X29.691 Y32.046
X30.275 Y31.287
X30.894 Y30.556
X31.547 Y29.856
X32.232 Y29.187
X32.948 Y28.55
X33.693 Y27.949
X34.467 Y27.385
X35.267 Y26.858
X36.09 Y26.369
X36.936 Y25.92
X37.802 Y25.51
X38.686 Y25.142
X39.586 Y24.816
X40.501 Y24.532
X41.428 Y24.293
X42.366 Y24.098
X43.312 Y23.948
X44.264 Y23.842
X45.22 Y23.781
X46.177 Y23.765
X47.134 Y23.793
X48.089 Y23.866
X49.04 Y23.983
X49.984 Y24.145
X50.919 Y24.351
X51.843 Y24.601
X52.755 Y24.893
X53.653 Y25.228
X54.534 Y25.603
X55.397 Y26.018
X56.24 Y26.472
X57.062 Y26.964
X57.86 Y27.494
X58.632 Y28.061
X59.377 Y28.662
X60.094 Y29.297
X60.781 Y29.964
X61.438 Y30.662
X62.062 Y31.388
X62.652 Y32.142
X63.209 Y32.921
X63.729 Y33.725
X64.211 Y34.553
X64.655 Y35.401
X65.06 Y36.269
X65.426 Y37.154
X65.751 Y38.055
X66.036 Y38.97
X66.279 Y39.896
X66.48 Y40.832
X66.639 Y41.777
X66.754 Y42.727
X66.826 Y43.682
X66.854 Y44.64
X66.839 Y45.597
X66.78 Y46.553
X66.679 Y47.506
X66.535 Y48.452
X66.349 Y49.392
X66.121 Y50.322
X65.851 Y51.241
X65.538 Y52.146
X65.184 Y53.036
X64.791 Y53.909
X64.359 Y54.764
X63.889 Y55.598
X63.382 Y56.411
X62.84 Y57.2
X62.262 Y57.964
X61.65 Y58.701
X61.006 Y59.409
X60.329 Y60.087
X59.623 Y60.734
X58.889 Y61.349
X58.128 Y61.93
X57.342 Y62.477
X56.532 Y62.989
X55.701 Y63.464
X54.849 Y63.901
X53.978 Y64.3
X53.09 Y64.658
X52.186 Y64.976
X51.27 Y65.254
X50.342 Y65.491
X49.404 Y65.687
X48.459 Y65.841
X47.508 Y65.954
X46.553 Y66.024
X45.596 Y66.052
X44.638 Y66.036
X43.682 Y65.978
X42.73 Y65.877
X41.783 Y65.735
X40.843 Y65.551
X39.912 Y65.327
X38.992 Y65.062
X38.084 Y64.756
X37.19 Y64.412
X36.313 Y64.029
X35.453 Y63.606
X34.613 Y63.146
X33.794 Y62.651
X32.997 Y62.12
X32.223 Y61.555
X31.474 Y60.958
X30.753 Y60.328
X30.059 Y59.668
X29.394 Y58.979
X28.76 Y58.261
X28.159 Y57.515
X27.591 Y56.744
X27.057 Y55.95
X26.557 Y55.133
X26.093 Y54.295
X25.665 Y53.438
X25.274 Y52.564
X24.921 Y51.674
X24.607 Y50.769
X24.332 Y49.851
X24.099 Y48.923
X23.905 Y47.985
X23.751 Y47.039
X23.638 Y46.088
X23.566 Y45.133
X23.534 Y44.176
X23.543 Y43.219
X23.593 Y42.262
X23.685 Y41.309
X23.818 Y40.361
X23.992 Y39.419
X24.206 Y38.485
X24.46 Y37.562
X24.752 Y36.65
X25.083 Y35.751
X25.451 Y34.867
X25.857 Y34
X26.3 Y33.15
X26.778 Y32.321
X27.292 Y31.513
X27.841 Y30.728
X28.422 Y29.967
X29.036 Y29.231
X29.68 Y28.522
X30.353 Y27.841
X31.054 Y27.189
X31.783 Y26.567
X32.537 Y25.977
X33.316 Y25.42
X34.118 Y24.897
X34.942 Y24.409
X35.786 Y23.956
X36.648 Y23.54
X37.528 Y23.16
X38.422 Y22.817
X39.33 Y22.513
X40.25 Y22.247
X41.18 Y22.02
X42.12 Y21.834
X43.066 Y21.688
X44.018 Y21.583
X44.974 Y21.518
X45.931 Y21.494
X46.889 Y21.509
X47.845 Y21.564
X48.798 Y21.659
X49.746 Y21.794
X50.688 Y21.969
X51.621 Y22.183
X52.544 Y22.437
X53.456 Y22.73
X54.355 Y23.061
X55.239 Y23.428
X56.108 Y23.832
X56.959 Y24.271
X57.791 Y24.745
X58.603 Y25.253
X59.393 Y25.794
X60.16 Y26.367
X60.903 Y26.973
X61.619 Y27.608
X62.308 Y28.273
X62.97 Y28.965
X63.603 Y29.684
X64.206 Y30.428
X64.778 Y31.196
X65.319 Y31.986
X65.827 Y32.798
X66.301 Y33.63
X66.74 Y34.482
X67.143 Y35.35
X67.511 Y36.235
X67.841 Y37.133
X68.136 Y38.045
X68.393 Y38.967
X68.612 Y39.9
X68.794 Y40.84
X68.937 Y41.787
X69.041 Y42.739
X69.106 Y43.694
X69.131 Y44.652
X69.116 Y45.609
X69.063 Y46.565
X68.97 Y47.519
X68.84 Y48.467
X68.67 Y49.41
X68.463 Y50.345
X68.218 Y51.271
X67.936 Y52.186
X67.616 Y53.089
X67.259 Y53.977
X66.865 Y54.85
X66.436 Y55.707
X65.973 Y56.545
X65.476 Y57.363
X64.946 Y58.161
X64.385 Y58.938
X63.793 Y59.69
X63.171 Y60.418
X62.519 Y61.12
X61.839 Y61.795
X61.132 Y62.44
X60.399 Y63.057
X59.642 Y63.643
X58.862 Y64.198
X58.06 Y64.722
X57.238 Y65.213
X56.396 Y65.671
X55.537 Y66.095
X54.662 Y66.483
X53.771 Y66.835
X52.867 Y67.151
X51.951 Y67.429
X51.024 Y67.671
X50.088 Y67.875
X49.145 Y68.042
X48.196 Y68.171
X47.243 Y68.262
X46.287 Y68.315
X45.329 Y68.33
X44.372 Y68.306
X43.416 Y68.243
X42.464 Y68.141
X41.517 Y68.001
X40.575 Y67.824
X39.642 Y67.61
X38.718 Y67.359
X37.804 Y67.071
X36.903 Y66.748
X36.015 Y66.39
X35.141 Y65.997
X34.285 Y65.569
X33.446 Y65.106
X32.626 Y64.611
X31.827 Y64.084
X31.049 Y63.525
X30.293 Y62.937
X29.561 Y62.32
X28.853 Y61.675
X28.171 Y61.002
X27.516 Y60.303
X26.89 Y59.579
X26.293 Y58.83
X25.726 Y58.058
X25.19 Y57.264
X24.686 Y56.45
X24.213 Y55.617
X23.774 Y54.766
X23.367 Y53.899
X22.995 Y53.017
X22.657 Y52.121
X22.354 Y51.212
X22.088 Y50.292
X21.858 Y49.362
X21.665 Y48.424
X21.509 Y47.479
X21.39 Y46.529
X21.307 Y45.575
X21.262 Y44.618
X21.253 Y43.661
X21.281 Y42.704
X21.347 Y41.748
X21.449 Y40.796
X21.589 Y39.848
X21.767 Y38.907
X21.981 Y37.974
X22.231 Y37.05
X22.517 Y36.135
X22.838 Y35.233
X23.193 Y34.344
X23.582 Y33.468
X24.004 Y32.609
X24.459 Y31.766
X24.946 Y30.942
X25.466 Y30.137
X26.017 Y29.354
X26.598 Y28.593
X27.209 Y27.855
X27.847 Y27.141
X28.512 Y26.452
X29.203 Y25.788
X29.919 Y25.152
X30.658 Y24.544
X31.421 Y23.965
X32.205 Y23.415
X33.011 Y22.897
X33.836 Y22.411
X34.68 Y21.958
X35.54 Y21.537
X36.416 Y21.15
X37.306 Y20.796
X38.209 Y20.477
X39.123 Y20.192
X40.048 Y19.942
X40.981 Y19.729
X41.922 Y19.551
X42.87 Y19.411
X43.822 Y19.308
X44.777 Y19.241
X45.734 Y19.212
X46.692 Y19.218
X47.649 Y19.261
X48.603 Y19.341
X49.554 Y19.456
X50.5 Y19.607
X51.439 Y19.794
X52.37 Y20.017
X53.292 Y20.276
X54.204 Y20.571
X55.103 Y20.9
X55.989 Y21.263
X56.861 Y21.659
X57.718 Y22.087
X58.558 Y22.548
X59.38 Y23.039
X60.183 Y23.56
X60.966 Y24.112
X61.728 Y24.692
X62.466 Y25.302
X63.181 Y25.939
X63.871 Y26.603
X64.536 Y27.292
X65.175 Y28.006
X65.787 Y28.742
X66.372 Y29.501
X66.928 Y30.281
X67.454 Y31.081
X67.951 Y31.9
X68.416 Y32.737
X68.85 Y33.591
X69.251 Y34.46
X69.618 Y35.345
X69.953 Y36.242
X70.253 Y37.151
X70.521 Y38.071
X70.754 Y39
X70.953 Y39.937
X71.117 Y40.88
X71.246 Y41.829
X71.34 Y42.782
X71.397 Y43.738
X71.418 Y44.696
X71.403 Y45.653
X71.353 Y46.61
X71.266 Y47.564
X71.145 Y48.514
X70.989 Y49.458
X70.798 Y50.397
X70.573 Y51.328
X70.314 Y52.25
X70.02 Y53.161
X69.693 Y54.061
X69.331 Y54.948
X68.936 Y55.821
X68.509 Y56.678
X68.051 Y57.518
X67.561 Y58.342
X67.042 Y59.146
X66.494 Y59.932
X65.917 Y60.696
X65.312 Y61.439
X64.681 Y62.159
X64.023 Y62.855
X63.339 Y63.525
X62.63 Y64.169
X61.898 Y64.787
X61.143 Y65.376
X60.368 Y65.938
X59.572 Y66.471
X58.758 Y66.975
X57.925 Y67.448
X57.076 Y67.891
X56.211 Y68.303
X55.332 Y68.682
X54.439 Y69.028
X53.534 Y69.341
X52.617 Y69.619
X51.691 Y69.864
X50.757 Y70.074
X49.816 Y70.25
X48.869 Y70.393
X47.917 Y70.5
X46.962 Y70.574
X46.005 Y70.612
X45.047 Y70.615
X44.09 Y70.584
X43.135 Y70.516
X42.183 Y70.413
X41.235 Y70.275
X40.293 Y70.103
X39.358 Y69.896
X38.431 Y69.657
X37.513 Y69.384
X36.605 Y69.078
X35.709 Y68.74
X34.826 Y68.37
X33.957 Y67.968
X33.103 Y67.534
X32.265 Y67.069
X31.446 Y66.574
X30.644 Y66.049
X29.862 Y65.496
X29.101 Y64.916
X28.36 Y64.309
X27.642 Y63.675
X26.947 Y63.017
X26.275 Y62.334
X25.629 Y61.627
X25.008 Y60.898
X24.415 Y60.146
X23.85 Y59.373
X23.313 Y58.58
X22.805 Y57.768
X22.326 Y56.939
X21.877 Y56.093
X21.458 Y55.232
X21.069 Y54.356
X20.712 Y53.468
X20.387 Y52.567
X20.094 Y51.655
X19.834 Y50.733
X19.608 Y49.803
X19.416 Y48.864
X19.258 Y47.92
X19.133 Y46.97
X19.042 Y46.017
X18.985 Y45.061
X18.962 Y44.103
X18.972 Y43.146
X19.016 Y42.189
X19.094 Y41.235
X19.205 Y40.283
X19.351 Y39.337
X19.532 Y38.396
X19.746 Y37.463
X19.994 Y36.538
X20.273 Y35.622
X20.585 Y34.716
X20.929 Y33.822
X21.303 Y32.941
X21.709 Y32.073
X22.144 Y31.22
X22.61 Y30.383
X23.105 Y29.564
X23.629 Y28.762
X24.182 Y27.98
X24.763 Y27.219
X25.37 Y26.478
X26.003 Y25.76
X26.661 Y25.064
X27.343 Y24.391
X28.048 Y23.743
X28.775 Y23.12
X29.524 Y22.522
X30.293 Y21.952
X31.082 Y21.409
X31.89 Y20.895
X32.716 Y20.411
X33.559 Y19.956
X34.418 Y19.532
X35.29 Y19.138
X36.177 Y18.774
X37.075 Y18.442
X37.984 Y18.141
X38.903 Y17.873
X39.831 Y17.636
X40.767 Y17.433
X41.71 Y17.262
X42.658 Y17.126
X43.61 Y17.025
X44.565 Y16.956
X45.522 Y16.922
X46.48 Y16.921
X47.437 Y16.953
X48.392 Y17.018
X49.345 Y17.117
X50.294 Y17.248
X51.237 Y17.412
X52.175 Y17.609
X53.104 Y17.838
X54.025 Y18.101
X54.936 Y18.397
X55.836 Y18.724
X56.724 Y19.083
X57.6 Y19.471
X58.461 Y19.89
X59.307 Y20.338
X60.138 Y20.815
X60.952 Y21.319
X61.748 Y21.852
X62.525 Y22.411
X63.283 Y22.997
X64.019 Y23.61
X64.733 Y24.248
X65.424 Y24.911
X66.093 Y25.597
X66.737 Y26.305
X67.357 Y27.035
X67.952 Y27.785
X68.521 Y28.556
X69.064 Y29.345
X69.58 Y30.152
X70.068 Y30.976
X70.527 Y31.816
X70.956 Y32.672
X71.355 Y33.543
X71.724 Y34.427
X72.062 Y35.323
X72.37 Y36.23
X72.646 Y37.147
X72.892 Y38.072
X73.106 Y39.006
X73.288 Y39.946
X73.439 Y40.892
X73.557 Y41.842
X73.643 Y42.796
X73.696 Y43.752
X73.714 Y44.71
X73.7 Y45.667
X73.653 Y46.624
X73.573 Y47.578
X73.461 Y48.529
X73.317 Y49.476
X73.141 Y50.417
X72.933 Y51.352
X72.694 Y52.28
X72.424 Y53.198
X72.122 Y54.107
X71.789 Y55.005
X71.425 Y55.891
X71.03 Y56.764
X70.606 Y57.622
X70.152 Y58.466
X69.67 Y59.293
X69.161 Y60.104
X68.624 Y60.898
X68.061 Y61.672
X67.473 Y62.428
X66.859 Y63.163
X66.221 Y63.877
X65.558 Y64.568
X64.872 Y65.236
X64.163 Y65.88
X63.432 Y66.499
X62.68 Y67.093
X61.909 Y67.661
X61.12 Y68.203
X60.312 Y68.718
X59.488 Y69.206
X58.648 Y69.666
X57.793 Y70.097
X56.925 Y70.5
X56.042 Y70.873
X55.148 Y71.215
X54.242 Y71.526
X53.326 Y71.805
X52.401 Y72.054
X51.468 Y72.271
X50.529 Y72.457
X49.584 Y72.612
X48.634 Y72.735
X47.681 Y72.826
X46.725 Y72.886
X45.768 Y72.914
X44.81 Y72.909
X43.853 Y72.872
X42.898 Y72.802
X41.946 Y72.699
X40.998 Y72.564
X40.054 Y72.397
X39.117 Y72.2
X38.187 Y71.971
X37.265 Y71.712
X36.353 Y71.422
X35.45 Y71.103
X34.558 Y70.753
X33.678 Y70.375
X32.812 Y69.967
X31.96 Y69.53
X31.123 Y69.064
X30.302 Y68.57
X29.499 Y68.049
X28.713 Y67.502
X27.945 Y66.929
X27.197 Y66.332
X26.468 Y65.71
X25.761 Y65.065
X25.074 Y64.397
X24.41 Y63.707
X23.77 Y62.995
X23.154 Y62.262
X22.562 Y61.508
X21.997 Y60.735
X21.458 Y59.944
X20.945 Y59.135
X20.459 Y58.31
X20 Y57.469
X19.569 Y56.614
X19.166 Y55.745
X18.791 Y54.864
X18.445 Y53.971
X18.129 Y53.067
X17.842 Y52.153
X17.587 Y51.23
X17.363 Y50.299
X17.169 Y49.361
X17.007 Y48.417
X16.877 Y47.468
X16.777 Y46.516
X16.708 Y45.561
X16.67 Y44.604
X16.663 Y43.646
X16.687 Y42.689
X16.742 Y41.733
X16.828 Y40.779
X16.946 Y39.828
X17.057 Y39.125
X17.076 Y39.02
X17.323 Y37.716
X17.374 Y37.498
X17.544 Y36.846
X17.834 Y35.759
X17.894 Y35.541
X17.942 Y35.385
X18.595 Y33.509
X18.651 Y33.367
X18.743 Y33.15
X19.31 Y31.845
X19.41 Y31.628
X19.682 Y31.066
X19.727 Y30.975
X20.416 Y29.671
X20.536 Y29.453
X20.802 Y29.018
X21.075 Y28.584
X21.486 Y27.931
X21.64 Y27.695
X21.857 Y27.375
X21.924 Y27.279
X23.054 Y25.757
X23.616 Y25.105
X24.467 Y24.125
X24.564 Y24.018
X25.223 Y23.365
X25.99 Y22.607
X26.113 Y22.496
X26.425 Y22.22
X26.642 Y22.033
X27.379 Y21.408
X27.512 Y21.296
X28.2 Y20.756
X28.382 Y20.62
X29.252 Y19.984
X29.394 Y19.886
X29.721 Y19.669
X30.407 Y19.234
X31.107 Y18.799
X31.21 Y18.737
X32.515 Y18.026
X32.695 Y17.93
X33.146 Y17.712
X34.087 Y17.277
X34.255 Y17.202
X34.69 Y17.013
X34.907 Y16.927
X35.691 Y16.625
X36.269 Y16.407
X36.43 Y16.35
X37.735 Y15.939
X37.952 Y15.875
X38.605 Y15.703
X39.269 Y15.538
X39.475 Y15.49
X39.91 Y15.393
X40.127 Y15.346
X40.997 Y15.186
X41.457 Y15.103
X41.65 Y15.073
X42.955 Y14.911
X43.172 Y14.89
X43.825 Y14.838
X44.477 Y14.795
X44.695 Y14.784
X45.13 Y14.768
X45.347 Y14.762
X46 Y14.756
X46.653 Y14.76
X46.87 Y14.766
X48.175 Y14.828
X48.393 Y14.848
X49.698 Y14.985
X50.35 Y15.081
X50.493 Y15.103
X51.003 Y15.187
X51.22 Y15.223
X51.873 Y15.346
X52.09 Y15.394
X53.178 Y15.641
X53.395 Y15.691
X54.7 Y16.072
X54.918 Y16.137
X55.135 Y16.207
X55.353 Y16.278
X56.311 Y16.625
X56.44 Y16.673
X57.093 Y16.923
X58.404 Y17.495
X58.615 Y17.589
X58.859 Y17.712
X59.703 Y18.147
X60.138 Y18.371
X60.355 Y18.485
X61.008 Y18.877
X61.443 Y19.14
X61.597 Y19.234
X62.279 Y19.669
X62.965 Y20.147
X63.618 Y20.61
X63.812 Y20.756
X64.705 Y21.475
X65.158 Y21.843
X65.358 Y22.018
X66.228 Y22.821
X66.445 Y23.024
X66.663 Y23.228
X66.799 Y23.365
X67.75 Y24.372
X68.185 Y24.855
X68.214 Y24.887
X68.929 Y25.757
X69.055 Y25.915
X69.49 Y26.476
X69.604 Y26.627
X70.379 Y27.714
X70.525 Y27.931
X70.578 Y28.012
X70.664 Y28.149
X71.465 Y29.453
X71.586 Y29.671
X71.883 Y30.225
X72.276 Y30.975
X72.382 Y31.193
X72.592 Y31.628
X72.692 Y31.845
X73.265 Y33.15
X73.348 Y33.367
X73.819 Y34.672
X74.058 Y35.404
X74.472 Y36.846
X74.493 Y36.93
X74.666 Y37.716
X74.854 Y38.585
X74.894 Y38.803
X74.931 Y39.02
X74.965 Y39.238
X75.153 Y40.542
X75.201 Y40.977
X75.224 Y41.195
X75.244 Y41.412
X75.332 Y42.717
X75.342 Y42.934
X75.357 Y43.369
X75.362 Y43.586
X75.347 Y44.891
X75.342 Y45.108
X75.33 Y45.543
X75.322 Y45.761
X75.118 Y47.935
X75.006 Y48.587
X74.889 Y49.239
X74.733 Y50.109
X74.71 Y50.214
X74.585 Y50.761
X74.531 Y50.979
X74.176 Y52.283
X74.116 Y52.501
X73.992 Y52.936
X73.925 Y53.153
X73.188 Y55.134
X73.114 Y55.327
X72.821 Y55.98
X72.753 Y56.126
X71.986 Y57.719
X71.883 Y57.925
X71.753 Y58.154
X71.665 Y58.306
X70.444 Y60.328
X70.36 Y60.451
X70.292 Y60.546
X68.835 Y62.503
X68.666 Y62.72
X67.482 Y64.025
X67.284 Y64.242
X66.88 Y64.681
X66.677 Y64.894
X65.14 Y66.284
X64.99 Y66.416
X64.705 Y66.665
X64.488 Y66.852
X62.313 Y68.459
X62.095 Y68.593
X60.138 Y69.76
X59.897 Y69.895
X59.703 Y70.001
X59.479 Y70.113
X57.963 Y70.826
X57.745 Y70.927
X57.144 Y71.2
X57.093 Y71.222
X54.918 Y71.999
X54.689 Y72.07
X54.265 Y72.197
X54.048 Y72.258
X52.09 Y72.753
X51.873 Y72.803
X51.22 Y72.911
X49.698 Y73.147
X49.045 Y73.232
X48.828 Y73.252
X46.87 Y73.375
X46.653 Y73.383
X46
X44.695 Y73.348
X44.477 Y73.341
X43.825 Y73.314
X43.607 Y73.292
X41.65 Y73.061
X41.432 Y73.032
X41.215 Y73.002
X40.997 Y72.962
X38.605 Y72.452
X38.059 Y72.287
X37.952 Y72.255
X36.43 Y71.776
X36.212 Y71.703
X35.777 Y71.554
X35.56 Y71.471
X33.602 Y70.641
X33.385 Y70.546
X32.732 Y70.211
X32.515 Y70.095
X31.21 Y69.384
X30.992 Y69.262
X30.557 Y69.002
X30.34 Y68.863
X28.817 Y67.828
X28.351 Y67.504
X28.165 Y67.364
X26.207 Y65.73
X26.002 Y65.547
X24.685 Y64.206
X24.508 Y64.025
X24.032 Y63.52
X23.898 Y63.372
X22.32 Y61.416
X22.164 Y61.198
X20.734 Y59.024
X20.614 Y58.806
X20.267 Y58.154
X19.577 Y56.849
X19.465 Y56.626
X19.36 Y56.415
X19.247 Y56.145
X18.595 Y54.57
X18.377 Y54.011
X18.299 Y53.805
X17.623 Y51.631
X17.471 Y50.979
X17.422 Y50.761
X17.14 Y49.457
X17.1 Y49.239
X17.022 Y48.805
X16.988 Y48.587
X16.822 Y47.283
X16.743 Y46.63
X16.721 Y46.413
X16.635 Y44.456
X16.627 Y44.239
X16.643 Y43.586
X16.658 Y43.151
X16.698 Y42.064
X16.737 Y41.629
X16.758 Y41.412
X16.78 Y41.195
X16.928 Y39.89
X16.963 Y39.673
X17.057 Y39.125
X17.078 Y39.074 Z-19.993
X17.098 Y39.026 Z-19.974
X17.116 Y38.984 Z-19.943
X17.13 Y38.949 Z-19.902
X17.14 Y38.925 Z-19.853
X17.147 Y38.914 Z-19.81
X17.15 Y38.91 Z-19.764
G0 Z5
X51.529 Y68.852
Z-17.797
G1 Z-18.397 F349
X51.533 Y68.858 Z-18.491
X51.543 Y68.877 Z-18.582
X51.56 Y68.909 Z-18.669
X51.584 Y68.952 Z-18.75
X51.613 Y69.006 Z-18.821
X51.647 Y69.069 Z-18.882
X51.686 Y69.139 Z-18.932
X51.727 Y69.216 Z-18.968
X51.771 Y69.296 Z-18.99
X51.816 Y69.379 Z-18.997
G3 X53.072 Y72.43 I-13.455 J7.321
G1 X53.098 Y72.535
X53.082 Y72.684
X53.038 Y72.828
X52.977 Y72.965
X52.901 Y73.099
X52.796 Y73.252
X52.657 Y73.425
X52.471 Y73.62
X52.229 Y73.838
X52.109 Y73.929
X52.026 Y73.983
X51.934 Y74.021
X51.838 Y74.045
X49.48 Y74.411
X49.263 Y74.44
X48.997 Y74.461
X48.61 Y74.487
X46.87 Y74.596
X46.653 Y74.604
X46 Y74.602
X44.477 Y74.561
X43.825 Y74.539
X43.607 Y74.517
X41.65 Y74.286
X41.432 Y74.256
X40.997 Y74.19
X40.78 Y74.154
X38.605 Y73.69
X37.952 Y73.511
X37.735 Y73.446
X35.777 Y72.831
X35.56 Y72.754
X34.907 Y72.485
X33.415 Y71.852
X32.732 Y71.543
X32.492 Y71.417
X30.495 Y70.33
X30.34 Y70.235
X30.122 Y70.1
X29.905 Y69.961
X27.888 Y68.591
X27.73 Y68.469
X27.512 Y68.291
X25.772 Y66.839
X25.542 Y66.634
X25.311 Y66.416
X25.095 Y66.199
X23.597 Y64.675
X23.392 Y64.46
X21.639 Y62.285
X21.485 Y62.068
X21.341 Y61.85
X20.117 Y59.99
X20.057 Y59.894
X19.924 Y59.676
X18.774 Y57.502
X18.663 Y57.284
X18.595 Y57.135
X17.845 Y55.327
X17.586 Y54.675
X17.507 Y54.454
X16.855 Y52.356
X16.674 Y51.631
X16.626 Y51.414
X16.344 Y50.109
X16.202 Y49.405
X15.931 Y47.283
X15.911 Y47.065
X15.882 Y46.63
X15.868 Y46.413
X15.811 Y45.108
X15.805 Y44.891
X15.797 Y44.239
X15.844 Y42.934
X15.853 Y42.717
X15.886 Y42.064
X15.909 Y41.847
X16.058 Y40.542
X16.138 Y39.89
X16.175 Y39.673
X16.423 Y38.368
X16.556 Y37.716
X16.608 Y37.498
X16.956 Y36.194
X17.14 Y35.541
X17.213 Y35.324
X17.667 Y34.019
X17.745 Y33.802
X17.824 Y33.584
X17.905 Y33.367
X18.595 Y31.78
X18.665 Y31.628
X18.985 Y30.975
X19.682 Y29.656
X19.795 Y29.453
X20.117 Y28.922
X20.77 Y27.886
X20.879 Y27.714
X21.023 Y27.496
X21.17 Y27.279
X22.299 Y25.757
X22.51 Y25.502
X22.844 Y25.105
X23.788 Y24.018
X23.815 Y23.988
X24.032 Y23.76
X24.203 Y23.583
X25.304 Y22.496
X25.555 Y22.256
X25.772 Y22.06
X26.798 Y21.191
X27.319 Y20.756
X27.512 Y20.607
X28.497 Y19.886
X28.817 Y19.653
X29.035 Y19.499
X30.557 Y18.535
X30.775 Y18.408
X31.427 Y18.052
X31.862 Y17.815
X32.08 Y17.699
X32.515 Y17.477
X32.732 Y17.367
X34.037 Y16.764
X34.255 Y16.67
X34.929 Y16.407
X35.56 Y16.164
X35.777 Y16.085
X36.212 Y15.933
X36.43 Y15.859
X37.448 Y15.538
X37.735 Y15.45
X37.952 Y15.388
X39.257 Y15.064
X39.475 Y15.016
X40.105 Y14.885
X40.78 Y14.761
X41.432 Y14.649
X41.65 Y14.616
X42.979 Y14.451
X43.172 Y14.433
X43.825 Y14.385
X44.477 Y14.342
X44.695 Y14.333
X45.13 Y14.317
X45.347 Y14.311
X46 Y14.305
X46.653 Y14.308
X46.87 Y14.315
X48.175 Y14.376
X48.393 Y14.395
X49.045 Y14.461
X49.698 Y14.529
X50.35 Y14.62
X50.568 Y14.653
X51.438 Y14.796
X51.931 Y14.885
X53.395 Y15.218
X54.048 Y15.397
X54.265 Y15.459
X54.7 Y15.586
X54.918 Y15.651
X55.57 Y15.855
X55.788 Y15.931
X57.101 Y16.407
X57.745 Y16.681
X58.18 Y16.87
X58.398 Y16.965
X58.615 Y17.061
X59.268 Y17.369
X59.516 Y17.495
X60.138 Y17.816
X60.79 Y18.156
X62.219 Y19.017
X62.313 Y19.074
X62.53 Y19.21
X62.565 Y19.234
X63.618 Y19.969
X63.808 Y20.104
X64.488 Y20.613
X65.478 Y21.408
X65.793 Y21.678
X65.983 Y21.843
X67.098 Y22.871
X67.159 Y22.93
X67.375 Y23.148
X67.533 Y23.31
X68.407 Y24.235
X68.606 Y24.452
X68.838 Y24.721
X68.979 Y24.887
X69.708 Y25.773
X69.864 Y25.974
X70.193 Y26.409
X70.36 Y26.634
X71.13 Y27.714
X71.271 Y27.931
X71.408 Y28.149
X72.209 Y29.453
X72.318 Y29.648
X72.676 Y30.323
X73.017 Y30.975
X73.337 Y31.628
X73.405 Y31.776
X74.009 Y33.15
X74.058 Y33.269
X74.097 Y33.367
X74.177 Y33.584
X74.568 Y34.672
X74.79 Y35.324
X74.857 Y35.541
X75.23 Y36.846
X75.284 Y37.063
X75.388 Y37.498
X75.438 Y37.716
X75.58 Y38.375
X75.717 Y39.02
X75.754 Y39.238
X75.941 Y40.542
X76.033 Y41.195
X76.055 Y41.412
X76.187 Y43.369
X76.197 Y43.586
X76.194 Y44.239
X76.179 Y45.543
X76.174 Y45.761
X76.134 Y46.413
X76.115 Y46.63
X75.993 Y47.935
X75.919 Y48.587
X75.885 Y48.805
X75.533 Y50.761
X75.486 Y50.979
X75.324 Y51.631
X74.85 Y53.371
X74.71 Y53.818
X74.058 Y55.574
X73.907 Y55.98
X73.84 Y56.136
X73.617 Y56.632
X73.516 Y56.849
X72.679 Y58.589
X72.564 Y58.806
X72.439 Y59.024
X71.23 Y61.025
X71.124 Y61.198
X70.578 Y61.944
X69.515 Y63.372
X69.49 Y63.403
X68.957 Y64.025
X68.838 Y64.158
X67.533 Y65.595
X67.366 Y65.764
X66.88 Y66.217
X66.663 Y66.417
X65.358 Y67.597
X65.219 Y67.721
X65.14 Y67.789
X64.923 Y67.953
X63.177 Y69.243
X62.965 Y69.395
X62.313 Y69.817
X62.186 Y69.895
X60.79 Y70.728
X60.727 Y70.765
X60.138 Y71.101
X59.946 Y71.2
X57.963 Y72.133
X57.745 Y72.234
X57.093 Y72.493
X54.918 Y73.27
X54.7 Y73.331
X54.265 Y73.447
X54.048 Y73.504
X52.743 Y73.833
X52.308 Y73.939
X51.942 Y74.026
X51.873 Y74.039
X51.838 Y74.045
X51.802 Y74.047 Z-18.994
X51.766 Y74.049 Z-18.986
X51.713 Y74.042 Z-18.961
X51.668 Y74.035 Z-18.923
X51.633 Y74.031 Z-18.875
X51.612 Y74.028 Z-18.82
X51.604 Y74.027 Z-18.761
G0 Z5
X49.376 Y18.484
Z-16.79
G1 Z-17.39 F349
X49.375 Y18.476 Z-17.484
X49.371 Y18.455 Z-17.575
X49.366 Y18.419 Z-17.662
X49.359 Y18.37 Z-17.743
X49.35 Y18.31 Z-17.814
X49.34 Y18.239 Z-17.875
X49.328 Y18.16 Z-17.925
X49.315 Y18.074 Z-17.961
X49.302 Y17.983 Z-17.983
X49.288 Y17.89 Z-17.99
G3 X49.16 Y14.593 I15.154 J-2.238
G1 X49.173 Y14.474
X49.221 Y14.332
X49.228 Y14.323
X49.338 Y14.208
X49.475 Y14.127
X49.629 Y14.084
X49.788
X50.35 Y14.156
X50.568 Y14.189
X51.873 Y14.403
X52.095 Y14.451
X52.743 Y14.595
X53.613 Y14.793
X53.83 Y14.85
X54.048 Y14.909
X54.265 Y14.971
X55.57 Y15.353
X55.788 Y15.428
X56.223 Y15.583
X57.093 Y15.898
X57.834 Y16.19
X59.268 Y16.816
X59.326 Y16.842
X59.754 Y17.06
X61.018 Y17.712
X61.225 Y17.829
X61.443 Y17.957
X61.76 Y18.147
X62.313 Y18.48
X62.965 Y18.88
X63.183 Y19.028
X64.488 Y19.939
X64.705 Y20.107
X65.255 Y20.539
X65.796 Y20.974
X66.064 Y21.191
X66.328 Y21.408
X66.445 Y21.514
X67.315 Y22.317
X67.533 Y22.52
X67.75 Y22.726
X67.968 Y22.935
X69.055 Y24.087
X69.273 Y24.318
X69.39 Y24.452
X70.463 Y25.757
X70.578 Y25.903
X71.013 Y26.493
X71.11 Y26.627
X71.73 Y27.496
X71.884 Y27.714
X72.1 Y28.059
X72.97 Y29.477
X73.077 Y29.671
X73.421 Y30.323
X73.762 Y30.975
X74.086 Y31.628
X74.278 Y32.062
X74.755 Y33.15
X74.847 Y33.367
X75.086 Y34.019
